presets/lightroom/Presets/Video/Cross-Processed Velvia Video.xmp
<x:xmpmeta xmlns:crs="http://ns.adobe.com/camera-raw-settings/1.0/" xmlns:rdf="http://www.w3.org/1999/02/22-rdf-syntax-ns#" xmlns:x="adobe:ns:meta/" x:xmptk="Adobe XMP Core 7.0-c000 1.000000, 0000/00/00-00:00:00">
 <rdf:RDF>
 
 
 <rdf:Description rdf:about="" crs:PresetType="Normal" crs:Cluster="" crs:UUID="95DD9574E9764E48B63A6CEC601A69E3" crs:SupportsAmount="True" crs:SupportsColor="True" crs:SupportsMonochrome="False" crs:SupportsHighDynamicRange="True" crs:SupportsNormalDynamicRange="True" crs:SupportsSceneReferred="True" crs:SupportsOutputReferred="True" crs:RequiresRenditionBehavior="True" crs:Name="Cross-Processed Velvia Video" crs:Treatment="Color" crs:ProcessVersion="15.4" crs:LuminanceSmoothing="0" crs:Sharpness="10" crs:HasSettings="True" crs:Blacks2012="0" crs:Clarity2012="0" crs:Contrast2012="45" crs:Dehaze="0" crs:Exposure2012="-0.30" crs:GrainAmount="17" crs:GrainFrequency="50" crs:GrainSize="20" crs:Highlights2012="-68" crs:HueAdjustmentAqua="+15" crs:HueAdjustmentBlue="-15" crs:HueAdjustmentGreen="+30" crs:HueAdjustmentMagenta="+40" crs:HueAdjustmentOrange="+2" crs:HueAdjustmentPurple="+30" crs:HueAdjustmentRed="+15" crs:HueAdjustmentYellow="-30" crs:LuminanceAdjustmentGreen="-15" crs:LuminanceAdjustmentRed="-15" crs:Saturation="+10" crs:SaturationAdjustmentAqua="+22" crs:SaturationAdjustmentBlue="-15" crs:SaturationAdjustmentGreen="+30" crs:SaturationAdjustmentMagenta="-10" crs:SaturationAdjustmentOrange="-15" crs:SaturationAdjustmentPurple="0" crs:SaturationAdjustmentRed="-30" crs:SaturationAdjustmentYellow="-40" crs:Shadows2012="+30" crs:Whites2012="+20" crs:Amount="1.000000" crs:Texture="0" crs:ColorGradeMidtoneHue="0" crs:ColorGradeMidtoneSat="0" crs:ColorGradeMidtoneLum="0" crs:ColorGradeHighlightHue="305" crs:ColorGradeHighlightSat="18" crs:ColorGradeHighlightLum="0" crs:ColorGradeShadowHue="160" crs:ColorGradeShadowSat="22" crs:ColorGradeShadowLum="0" crs:ColorGradeGlobalHue="0" crs:ColorGradeGlobalSat="0" crs:ColorGradeGlobalLum="0" crs:ColorGradeBlending="75" crs:ColorGradeBalance="-40">
 <crs:Name>
 <rdf:Alt>
 <rdf:li xml:lang="x-default">Cross-Processed Velvia Video</rdf:li>
 </rdf:Alt>
 </crs:Name>
 <crs:Group>
 <rdf:Alt>
 <rdf:li xml:lang="x-default">Video</rdf:li>
 </rdf:Alt>
 </crs:Group>
 <crs:Look>
 
 
 
 <rdf:Description crs:Name="Adobe Color" crs:Amount="1.000000" crs:UUID="B952C21111114111B1115456789ABCDE" crs:SupportsAmount="True" crs:SupportsMonochrome="False" crs:SupportsOutputReferred="True">
 <crs:Group>
 <rdf:Alt>
 <rdf:li xml:lang="x-default">Profiles</rdf:li>
 </rdf:Alt>
 </crs:Group>
 </rdf:Description>
 </crs:Look>
 <crs:ToneCurvePV2012><rdf:Seq><rdf:li>0, 0</rdf:li><rdf:li>255, 255</rdf:li></rdf:Seq></crs:ToneCurvePV2012><crs:ToneCurvePV2012Red><rdf:Seq><rdf:li>0, 0</rdf:li><rdf:li>255, 255</rdf:li></rdf:Seq></crs:ToneCurvePV2012Red><crs:ToneCurvePV2012Green><rdf:Seq><rdf:li>0, 0</rdf:li><rdf:li>255, 255</rdf:li></rdf:Seq></crs:ToneCurvePV2012Green><crs:ToneCurvePV2012Blue><rdf:Seq><rdf:li>0, 0</rdf:li><rdf:li>255, 255</rdf:li></rdf:Seq></crs:ToneCurvePV2012Blue></rdf:Description>
 </rdf:RDF>
</x:xmpmeta>