presets/lightroom/Presets/Video/Teal & Orange Cinematic Video.xmp
<x:xmpmeta xmlns:crs="http://ns.adobe.com/camera-raw-settings/1.0/" xmlns:rdf="http://www.w3.org/1999/02/22-rdf-syntax-ns#" xmlns:x="adobe:ns:meta/" x:xmptk="Adobe XMP Core 7.0-c000 1.000000, 0000/00/00-00:00:00">
 <rdf:RDF>
 
 <rdf:Description rdf:about="" crs:PresetType="Normal" crs:Cluster="" crs:UUID="EFA57117AC434A6D93ED793AE0A3B9D8" crs:SupportsAmount="True" crs:SupportsColor="True" crs:SupportsMonochrome="False" crs:SupportsHighDynamicRange="True" crs:SupportsNormalDynamicRange="True" crs:SupportsSceneReferred="True" crs:SupportsOutputReferred="True" crs:RequiresRenditionBehavior="True" crs:Name="Teal &amp; Orange Cinematic Video" crs:Treatment="Color" crs:ProcessVersion="15.4" crs:LuminanceSmoothing="0" crs:Sharpness="10" crs:HasSettings="True" crs:Blacks2012="0" crs:Contrast2012="18.75" crs:Exposure2012="-0.10" crs:GrainAmount="12" crs:GrainFrequency="50" crs:GrainSize="20" crs:Highlights2012="-48" crs:HueAdjustmentGreen="-60" crs:LuminanceAdjustmentOrange="+10" crs:PostCropVignetteAmount="-10" crs:Saturation="0" crs:SaturationAdjustmentBlue="-20" crs:SaturationAdjustmentGreen="-40" crs:Shadows2012="+30" crs:Whites2012="+15" crs:ColorGradeMidtoneHue="35" crs:ColorGradeMidtoneSat="7.5" crs:ColorGradeMidtoneLum="0" crs:ColorGradeHighlightHue="35.75" crs:ColorGradeHighlightSat="15" crs:ColorGradeHighlightLum="0" crs:ColorGradeShadowHue="208.75" crs:ColorGradeShadowSat="20" crs:ColorGradeShadowLum="0" crs:ColorGradeGlobalHue="0" crs:ColorGradeGlobalSat="0" crs:ColorGradeGlobalLum="0" crs:ColorGradeBlending="75" crs:ColorGradeBalance="-30" crs:Amount="1.000000" crs:Clarity2012="0" crs:Dehaze="0" crs:Texture="0">
 <crs:Name>
 <rdf:Alt>
 <rdf:li xml:lang="x-default">Teal &amp; Orange Cinematic Video</rdf:li>
 </rdf:Alt>
 </crs:Name>
 <crs:Group>
 <rdf:Alt>
 <rdf:li xml:lang="x-default">Video</rdf:li>
 </rdf:Alt>
 </crs:Group>
 <crs:Look>
 
 
 <rdf:Description crs:Name="Adobe Color" crs:Amount="1.000000" crs:UUID="B952C21111114111B1115456789ABCDE" crs:SupportsAmount="True" crs:SupportsMonochrome="False" crs:SupportsOutputReferred="True">
 <crs:Group>
 <rdf:Alt>
 <rdf:li xml:lang="x-default">Profiles</rdf:li>
 </rdf:Alt>
 </crs:Group>
 </rdf:Description>
 </crs:Look>
 <crs:ToneCurvePV2012><rdf:Seq><rdf:li>0, 20</rdf:li><rdf:li>64, 55</rdf:li><rdf:li>128, 128</rdf:li><rdf:li>192, 196</rdf:li><rdf:li>255, 235</rdf:li></rdf:Seq></crs:ToneCurvePV2012><crs:ToneCurvePV2012Red><rdf:Seq><rdf:li>0, 20</rdf:li><rdf:li>64, 55</rdf:li><rdf:li>128, 128</rdf:li><rdf:li>192, 196</rdf:li><rdf:li>255, 235</rdf:li></rdf:Seq></crs:ToneCurvePV2012Red><crs:ToneCurvePV2012Green><rdf:Seq><rdf:li>0, 20</rdf:li><rdf:li>64, 55</rdf:li><rdf:li>128, 128</rdf:li><rdf:li>192, 196</rdf:li><rdf:li>255, 235</rdf:li></rdf:Seq></crs:ToneCurvePV2012Green><crs:ToneCurvePV2012Blue><rdf:Seq><rdf:li>0, 20</rdf:li><rdf:li>64, 55</rdf:li><rdf:li>128, 128</rdf:li><rdf:li>192, 196</rdf:li><rdf:li>255, 235</rdf:li></rdf:Seq></crs:ToneCurvePV2012Blue></rdf:Description>
 </rdf:RDF>
</x:xmpmeta>