presets/lightroom/Presets/Video/Tri-X 400 Video.xmp
<x:xmpmeta xmlns:crs="http://ns.adobe.com/camera-raw-settings/1.0/" xmlns:rdf="http://www.w3.org/1999/02/22-rdf-syntax-ns#" xmlns:x="adobe:ns:meta/" x:xmptk="Adobe XMP Core 7.0-c000 1.000000, 0000/00/00-00:00:00">
 <rdf:RDF>
 
 <rdf:Description rdf:about="" crs:PresetType="Normal" crs:Cluster="" crs:UUID="2C96E1FE2C4143C4B68A4783A2106891" crs:SupportsAmount="True" crs:SupportsColor="True" crs:SupportsMonochrome="True" crs:SupportsHighDynamicRange="True" crs:SupportsNormalDynamicRange="True" crs:SupportsSceneReferred="True" crs:SupportsOutputReferred="True" crs:RequiresRenditionBehavior="True" crs:Name="Tri-X 400 Video" crs:Treatment="Monochrome" crs:ProcessVersion="15.4" crs:HasSettings="True" crs:Sharpness="10" crs:LuminanceSmoothing="0" crs:Blacks2012="-20" crs:Clarity2012="0" crs:Contrast2012="30" crs:ConvertToGrayscale="True" crs:GrainAmount="43" crs:GrainFrequency="65" crs:GrainSize="30" crs:GrayMixerRed="+30" crs:GrayMixerOrange="+20" crs:GrayMixerYellow="-5" crs:GrayMixerGreen="-25" crs:GrayMixerAqua="0" crs:GrayMixerBlue="-40" crs:GrayMixerPurple="0" crs:GrayMixerMagenta="-5" crs:Highlights2012="-18.8" crs:Shadows2012="+25" crs:Texture="0" crs:Whites2012="+15" crs:ColorGradeMidtoneHue="0" crs:ColorGradeMidtoneSat="0" crs:ColorGradeMidtoneLum="0" crs:ColorGradeHighlightHue="0" crs:ColorGradeHighlightSat="0" crs:ColorGradeHighlightLum="0" crs:ColorGradeShadowHue="0" crs:ColorGradeShadowSat="0" crs:ColorGradeShadowLum="0" crs:ColorGradeGlobalHue="0" crs:ColorGradeGlobalSat="0" crs:ColorGradeGlobalLum="0" crs:ColorGradeBlending="50" crs:ColorGradeBalance="0" crs:Amount="1.000000" crs:Dehaze="0">
 <crs:Name>
 <rdf:Alt>
 <rdf:li xml:lang="x-default">Tri-X 400 Video</rdf:li>
 </rdf:Alt>
 </crs:Name>
 <crs:Group>
 <rdf:Alt>
 <rdf:li xml:lang="x-default">Video</rdf:li>
 </rdf:Alt>
 </crs:Group>
 <crs:Look>
 
 
 <rdf:Description crs:Name="Adobe Monochrome" crs:Amount="1.000000" crs:UUID="0C09521111114111B1115456789ABCDE" crs:SupportsAmount="True" crs:SupportsMonochrome="True" crs:SupportsOutputReferred="True">
 <crs:Group>
 <rdf:Alt>
 <rdf:li xml:lang="x-default">Profiles</rdf:li>
 </rdf:Alt>
 </crs:Group>
 </rdf:Description>
 </crs:Look>
 <crs:ToneCurvePV2012><rdf:Seq><rdf:li>0, 0</rdf:li><rdf:li>255, 255</rdf:li></rdf:Seq></crs:ToneCurvePV2012><crs:ToneCurvePV2012Red><rdf:Seq><rdf:li>0, 0</rdf:li><rdf:li>255, 255</rdf:li></rdf:Seq></crs:ToneCurvePV2012Red><crs:ToneCurvePV2012Green><rdf:Seq><rdf:li>0, 0</rdf:li><rdf:li>255, 255</rdf:li></rdf:Seq></crs:ToneCurvePV2012Green><crs:ToneCurvePV2012Blue><rdf:Seq><rdf:li>0, 0</rdf:li><rdf:li>255, 255</rdf:li></rdf:Seq></crs:ToneCurvePV2012Blue></rdf:Description>
 </rdf:RDF>
</x:xmpmeta>