presets/lightroom/Presets/Video/Velvia 50 Video.xmp
<x:xmpmeta xmlns:crs="http://ns.adobe.com/camera-raw-settings/1.0/" xmlns:rdf="http://www.w3.org/1999/02/22-rdf-syntax-ns#" xmlns:x="adobe:ns:meta/" x:xmptk="Adobe XMP Core 7.0-c000 1.000000, 0000/00/00-00:00:00">
 <rdf:RDF>
 
 <rdf:Description rdf:about="" crs:PresetType="Normal" crs:Cluster="" crs:UUID="4C6BEE78F5D041C0B4422D303988A220" crs:SupportsAmount="True" crs:SupportsColor="True" crs:SupportsMonochrome="False" crs:SupportsHighDynamicRange="True" crs:SupportsNormalDynamicRange="True" crs:SupportsSceneReferred="True" crs:SupportsOutputReferred="True" crs:RequiresRenditionBehavior="True" crs:Name="Velvia 50 Video" crs:Treatment="Color" crs:ProcessVersion="15.4" crs:HasSettings="True" crs:Sharpness="10" crs:LuminanceSmoothing="0" crs:Blacks2012="-20" crs:Clarity2012="0" crs:Contrast2012="35" crs:GrainAmount="5" crs:GrainFrequency="50" crs:GrainSize="20" crs:Highlights2012="-73" crs:HueAdjustmentRed="+15" crs:HueAdjustmentOrange="-10" crs:HueAdjustmentYellow="-17.5" crs:HueAdjustmentGreen="+22.5" crs:HueAdjustmentAqua="+15" crs:HueAdjustmentBlue="-7.5" crs:HueAdjustmentPurple="+15" crs:HueAdjustmentMagenta="+10" crs:LuminanceAdjustmentOrange="+7.5" crs:LuminanceAdjustmentYellow="+7.5" crs:LuminanceAdjustmentGreen="-15" crs:LuminanceAdjustmentAqua="-15" crs:LuminanceAdjustmentBlue="-22.5" crs:Saturation="-5" crs:SaturationAdjustmentRed="+22.5" crs:SaturationAdjustmentOrange="+20" crs:SaturationAdjustmentYellow="+12.5" crs:SaturationAdjustmentGreen="+35" crs:SaturationAdjustmentAqua="-15" crs:SaturationAdjustmentBlue="+26.3" crs:SaturationAdjustmentPurple="+15" crs:SaturationAdjustmentMagenta="+20" crs:Shadows2012="-30" crs:Texture="0" crs:Whites2012="+15" crs:ColorGradeMidtoneHue="0" crs:ColorGradeMidtoneSat="0" crs:ColorGradeMidtoneLum="0" crs:ColorGradeHighlightHue="50" crs:ColorGradeHighlightSat="7.5" crs:ColorGradeHighlightLum="0" crs:ColorGradeShadowHue="230" crs:ColorGradeShadowSat="10" crs:ColorGradeShadowLum="0" crs:ColorGradeGlobalHue="0" crs:ColorGradeGlobalSat="0" crs:ColorGradeGlobalLum="0" crs:ColorGradeBlending="75" crs:ColorGradeBalance="-5" crs:Amount="1.000000" crs:Dehaze="0">
 <crs:Name>
 <rdf:Alt>
 <rdf:li xml:lang="x-default">Velvia 50 Video</rdf:li>
 </rdf:Alt>
 </crs:Name>
 <crs:Group>
 <rdf:Alt>
 <rdf:li xml:lang="x-default">Video</rdf:li>
 </rdf:Alt>
 </crs:Group>
 <crs:Look>
 
 
 <rdf:Description crs:Name="Adobe Color" crs:Amount="1.000000" crs:UUID="B952C21111114111B1115456789ABCDE" crs:SupportsAmount="True" crs:SupportsMonochrome="False" crs:SupportsOutputReferred="True">
 <crs:Group>
 <rdf:Alt>
 <rdf:li xml:lang="x-default">Profiles</rdf:li>
 </rdf:Alt>
 </crs:Group>
 </rdf:Description>
 </crs:Look>
 <crs:ToneCurvePV2012><rdf:Seq><rdf:li>0, 0</rdf:li><rdf:li>42, 28</rdf:li><rdf:li>128, 128</rdf:li><rdf:li>213, 230</rdf:li><rdf:li>255, 255</rdf:li></rdf:Seq></crs:ToneCurvePV2012><crs:ToneCurvePV2012Red><rdf:Seq><rdf:li>0, 0</rdf:li><rdf:li>42, 28</rdf:li><rdf:li>128, 128</rdf:li><rdf:li>213, 230</rdf:li><rdf:li>255, 255</rdf:li></rdf:Seq></crs:ToneCurvePV2012Red><crs:ToneCurvePV2012Green><rdf:Seq><rdf:li>0, 0</rdf:li><rdf:li>42, 28</rdf:li><rdf:li>128, 128</rdf:li><rdf:li>213, 230</rdf:li><rdf:li>255, 255</rdf:li></rdf:Seq></crs:ToneCurvePV2012Green><crs:ToneCurvePV2012Blue><rdf:Seq><rdf:li>0, 0</rdf:li><rdf:li>42, 28</rdf:li><rdf:li>128, 128</rdf:li><rdf:li>213, 230</rdf:li><rdf:li>255, 255</rdf:li></rdf:Seq></crs:ToneCurvePV2012Blue></rdf:Description>
 </rdf:RDF>
</x:xmpmeta>