presets/lightroom/Presets/Video/Wes Anderson Pastel Video.xmp
<x:xmpmeta xmlns:crs="http://ns.adobe.com/camera-raw-settings/1.0/" xmlns:rdf="http://www.w3.org/1999/02/22-rdf-syntax-ns#" xmlns:x="adobe:ns:meta/" x:xmptk="Adobe XMP Core 7.0-c000 1.000000, 0000/00/00-00:00:00">
 <rdf:RDF>
 
 <rdf:Description rdf:about="" crs:PresetType="Normal" crs:Cluster="" crs:UUID="FB566628E10A47F0B034173FD8F421BD" crs:SupportsAmount="True" crs:SupportsColor="True" crs:SupportsMonochrome="False" crs:SupportsHighDynamicRange="True" crs:SupportsNormalDynamicRange="True" crs:SupportsSceneReferred="True" crs:SupportsOutputReferred="True" crs:RequiresRenditionBehavior="True" crs:Name="Wes Anderson Pastel Video" crs:Treatment="Color" crs:ProcessVersion="15.4" crs:LuminanceSmoothing="0" crs:Sharpness="10" crs:HasSettings="True" crs:Blacks2012="0" crs:Clarity2012="0" crs:Contrast2012="-35" crs:Dehaze="0" crs:Exposure2012="+0.25" crs:GrainAmount="17" crs:GrainFrequency="60" crs:GrainSize="25" crs:Highlights2012="-68" crs:HueAdjustmentAqua="+10" crs:HueAdjustmentBlue="0" crs:HueAdjustmentGreen="+15" crs:HueAdjustmentMagenta="+10" crs:HueAdjustmentOrange="-10" crs:HueAdjustmentPurple="0" crs:HueAdjustmentRed="0" crs:HueAdjustmentYellow="-5" crs:LuminanceAdjustmentBlue="+5" crs:LuminanceAdjustmentGreen="+5" crs:LuminanceAdjustmentOrange="+10" crs:LuminanceAdjustmentRed="+5" crs:LuminanceAdjustmentYellow="+5" crs:Saturation="-12" crs:SaturationAdjustmentAqua="-10" crs:SaturationAdjustmentBlue="-20" crs:SaturationAdjustmentGreen="-20" crs:SaturationAdjustmentMagenta="+5" crs:SaturationAdjustmentOrange="-15" crs:SaturationAdjustmentPurple="-15" crs:SaturationAdjustmentRed="-5" crs:SaturationAdjustmentYellow="+10" crs:Shadows2012="+45" crs:Texture="0" crs:Whites2012="+15" crs:ColorGradeMidtoneHue="0" crs:ColorGradeMidtoneSat="0" crs:ColorGradeMidtoneLum="0" crs:ColorGradeHighlightHue="45" crs:ColorGradeHighlightSat="8" crs:ColorGradeHighlightLum="0" crs:ColorGradeShadowHue="200" crs:ColorGradeShadowSat="12" crs:ColorGradeShadowLum="0" crs:ColorGradeGlobalHue="0" crs:ColorGradeGlobalSat="0" crs:ColorGradeGlobalLum="0" crs:ColorGradeBlending="75" crs:ColorGradeBalance="0" crs:Amount="1.000000">
 <crs:Name>
 <rdf:Alt>
 <rdf:li xml:lang="x-default">Wes Anderson Pastel Video</rdf:li>
 </rdf:Alt>
 </crs:Name>
 <crs:Group>
 <rdf:Alt>
 <rdf:li xml:lang="x-default">Video</rdf:li>
 </rdf:Alt>
 </crs:Group>
 <crs:Look>
 
 
 <rdf:Description crs:Name="Adobe Color" crs:Amount="1.000000" crs:UUID="B952C21111114111B1115456789ABCDE" crs:SupportsAmount="True" crs:SupportsMonochrome="False" crs:SupportsOutputReferred="True">
 <crs:Group>
 <rdf:Alt>
 <rdf:li xml:lang="x-default">Profiles</rdf:li>
 </rdf:Alt>
 </crs:Group>
 </rdf:Description>
 </crs:Look>
 <crs:ToneCurvePV2012><rdf:Seq><rdf:li>0, 20</rdf:li><rdf:li>64, 55</rdf:li><rdf:li>128, 128</rdf:li><rdf:li>192, 196</rdf:li><rdf:li>255, 235</rdf:li></rdf:Seq></crs:ToneCurvePV2012><crs:ToneCurvePV2012Red><rdf:Seq><rdf:li>0, 20</rdf:li><rdf:li>64, 55</rdf:li><rdf:li>128, 128</rdf:li><rdf:li>192, 196</rdf:li><rdf:li>255, 235</rdf:li></rdf:Seq></crs:ToneCurvePV2012Red><crs:ToneCurvePV2012Green><rdf:Seq><rdf:li>0, 20</rdf:li><rdf:li>64, 55</rdf:li><rdf:li>128, 128</rdf:li><rdf:li>192, 196</rdf:li><rdf:li>255, 235</rdf:li></rdf:Seq></crs:ToneCurvePV2012Green><crs:ToneCurvePV2012Blue><rdf:Seq><rdf:li>0, 20</rdf:li><rdf:li>64, 55</rdf:li><rdf:li>128, 128</rdf:li><rdf:li>192, 196</rdf:li><rdf:li>255, 235</rdf:li></rdf:Seq></crs:ToneCurvePV2012Blue></rdf:Description>
 </rdf:RDF>
</x:xmpmeta>