presets/lightroom/Presets/Decade/Diner Americana.xmp
<x:xmpmeta xmlns:crs="http://ns.adobe.com/camera-raw-settings/1.0/" xmlns:rdf="http://www.w3.org/1999/02/22-rdf-syntax-ns#" xmlns:x="adobe:ns:meta/" x:xmptk="Adobe XMP Core 7.0-c000 1.000000, 0000/00/00-00:00:00">
 <rdf:RDF>


 
 <rdf:Description rdf:about="" crs:PresetType="Normal" crs:Cluster="" crs:UUID="53005671400B29740B744548524C0AD1" crs:SupportsAmount="True" crs:SupportsColor="True" crs:SupportsMonochrome="True" crs:SupportsHighDynamicRange="True" crs:SupportsNormalDynamicRange="True" crs:SupportsSceneReferred="True" crs:SupportsOutputReferred="True" crs:RequiresRenditionBehavior="True" crs:Name="Diner Americana" crs:Treatment="Color" crs:ProcessVersion="15.4" crs:HasSettings="True" crs:Exposure2012="+0.10" crs:Contrast2012="+15" crs:Highlights2012="-35" crs:Shadows2012="+25" crs:Whites2012="+5" crs:Blacks2012="-5" crs:Sharpness="10" crs:LuminanceSmoothing="0" crs:Dehaze="-5" crs:SaturationAdjustmentRed="+10" crs:LuminanceAdjustmentOrange="+10" crs:SaturationAdjustmentBlue="+5" crs:SaturationAdjustmentGreen="-15" crs:PostCropVignetteAmount="-12" crs:ColorGradeMidtoneHue="0" crs:ColorGradeMidtoneSat="0" crs:ColorGradeMidtoneLum="0" crs:ColorGradeHighlightHue="35" crs:ColorGradeHighlightSat="10" crs:ColorGradeHighlightLum="0" crs:ColorGradeShadowHue="200" crs:ColorGradeShadowSat="12" crs:ColorGradeShadowLum="0" crs:ColorGradeGlobalHue="0" crs:ColorGradeGlobalSat="0" crs:ColorGradeGlobalLum="0" crs:ColorGradeBlending="75" crs:ColorGradeBalance="0">
 <crs:Name>
 <rdf:Alt>
 <rdf:li xml:lang="x-default">Diner Americana</rdf:li>
 </rdf:Alt>
 </crs:Name>
 <crs:Group>
 <rdf:Alt>
 <rdf:li xml:lang="x-default">Decade</rdf:li>
 </rdf:Alt>
 </crs:Group>
 <crs:Look>


 
 <rdf:Description crs:Name="Adobe Color" crs:Amount="1.000000" crs:UUID="B952C21111114111B1115456789ABCDE" crs:SupportsAmount="True" crs:SupportsMonochrome="False" crs:SupportsOutputReferred="True">
 <crs:Group>
 <rdf:Alt>
 <rdf:li xml:lang="x-default">Profiles</rdf:li>
 </rdf:Alt>
 </crs:Group>
 </rdf:Description>
 </crs:Look>
 <crs:ToneCurvePV2012><rdf:Seq><rdf:li>0, 0</rdf:li><rdf:li>255, 255</rdf:li></rdf:Seq></crs:ToneCurvePV2012><crs:ToneCurvePV2012Red><rdf:Seq><rdf:li>0, 0</rdf:li><rdf:li>255, 255</rdf:li></rdf:Seq></crs:ToneCurvePV2012Red><crs:ToneCurvePV2012Green><rdf:Seq><rdf:li>0, 0</rdf:li><rdf:li>255, 255</rdf:li></rdf:Seq></crs:ToneCurvePV2012Green><crs:ToneCurvePV2012Blue><rdf:Seq><rdf:li>0, 0</rdf:li><rdf:li>255, 255</rdf:li></rdf:Seq></crs:ToneCurvePV2012Blue></rdf:Description>
 </rdf:RDF>
</x:xmpmeta>