presets/lightroom/Presets/Genre/Court Action Indoor.xmp
<x:xmpmeta xmlns:crs="http://ns.adobe.com/camera-raw-settings/1.0/" xmlns:rdf="http://www.w3.org/1999/02/22-rdf-syntax-ns#" xmlns:x="adobe:ns:meta/" x:xmptk="Adobe XMP Core 7.0-c000 1.000000, 0000/00/00-00:00:00">
    <rdf:RDF>


 <rdf:Description rdf:about="" crs:PresetType="Normal" crs:Cluster="" crs:UUID="FF255DA4E3D1B1F303FF8ACA59C55B8A" crs:SupportsAmount="True" crs:SupportsColor="True" crs:SupportsMonochrome="True" crs:SupportsHighDynamicRange="True" crs:SupportsNormalDynamicRange="True" crs:SupportsSceneReferred="True" crs:SupportsOutputReferred="True" crs:RequiresRenditionBehavior="True" crs:ProcessVersion="15.4" crs:Treatment="Color" crs:HasSettings="True" crs:Name="Court Action Indoor" crs:Blacks2012="-10" crs:Clarity2012="+20" crs:Contrast2012="+25" crs:Exposure2012="+0.35" crs:Highlights2012="-35" crs:Saturation="+5" crs:SaturationAdjustmentGreen="-5" crs:SaturationAdjustmentOrange="-5" crs:SaturationAdjustmentRed="-5" crs:Shadows2012="+25" crs:Texture="+10" crs:Vibrance="+5" crs:Whites2012="+10" crs:ColorGradeMidtoneHue="0" crs:ColorGradeMidtoneSat="0" crs:ColorGradeMidtoneLum="0" crs:ColorGradeHighlightHue="43" crs:ColorGradeHighlightSat="5" crs:ColorGradeHighlightLum="0" crs:ColorGradeShadowHue="225" crs:ColorGradeShadowSat="8" crs:ColorGradeShadowLum="0" crs:ColorGradeGlobalHue="0" crs:ColorGradeGlobalSat="0" crs:ColorGradeGlobalLum="0" crs:ColorGradeBlending="75" crs:ColorGradeBalance="0">
    <crs:Name>
    <rdf:Alt>
    <rdf:li xml:lang="x-default">Court Action Indoor</rdf:li>
    </rdf:Alt>
    </crs:Name>
 <crs:Group>
    <rdf:Alt>
    <rdf:li xml:lang="x-default">Genre</rdf:li>
    </rdf:Alt>
    </crs:Group>
 <crs:Look>


 <rdf:Description crs:Name="Adobe Color" crs:Amount="1.000000" crs:UUID="B952C21111114111B1115456789ABCDE" crs:SupportsAmount="True" crs:SupportsMonochrome="False" crs:SupportsOutputReferred="True">
    <crs:Group>
    <rdf:Alt>
    <rdf:li xml:lang="x-default">Profiles</rdf:li>
    </rdf:Alt>
    </crs:Group>
    </rdf:Description>
    </crs:Look>
 <crs:ToneCurvePV2012><rdf:Seq><rdf:li>0, 0</rdf:li><rdf:li>255, 255</rdf:li></rdf:Seq></crs:ToneCurvePV2012><crs:ToneCurvePV2012Red><rdf:Seq><rdf:li>0, 0</rdf:li><rdf:li>255, 255</rdf:li></rdf:Seq></crs:ToneCurvePV2012Red><crs:ToneCurvePV2012Green><rdf:Seq><rdf:li>0, 0</rdf:li><rdf:li>255, 255</rdf:li></rdf:Seq></crs:ToneCurvePV2012Green><crs:ToneCurvePV2012Blue><rdf:Seq><rdf:li>0, 0</rdf:li><rdf:li>255, 255</rdf:li></rdf:Seq></crs:ToneCurvePV2012Blue></rdf:Description>
    </rdf:RDF>
   </x:xmpmeta>