presets/lightroom/Presets/Genre/Epic Landscape.xmp
<x:xmpmeta xmlns:crs="http://ns.adobe.com/camera-raw-settings/1.0/" xmlns:rdf="http://www.w3.org/1999/02/22-rdf-syntax-ns#" xmlns:x="adobe:ns:meta/" x:xmptk="Adobe XMP Core 7.0-c000 1.000000, 0000/00/00-00:00:00">
    <rdf:RDF>


 <rdf:Description rdf:about="" crs:PresetType="Normal" crs:Cluster="" crs:UUID="DB0259D703A369AB47E063FFB4103442" crs:SupportsAmount="True" crs:SupportsColor="True" crs:SupportsMonochrome="True" crs:SupportsHighDynamicRange="True" crs:SupportsNormalDynamicRange="True" crs:SupportsSceneReferred="True" crs:SupportsOutputReferred="True" crs:RequiresRenditionBehavior="True" crs:ProcessVersion="15.4" crs:Treatment="Color" crs:HasSettings="True" crs:Name="Epic Landscape" crs:Blacks2012="-10" crs:Clarity2012="+15" crs:Contrast2012="+25" crs:Dehaze="+10" crs:Exposure2012="+0.20" crs:Highlights2012="-45" crs:HueAdjustmentGreen="+15" crs:Saturation="+10" crs:SaturationAdjustmentAqua="+5" crs:SaturationAdjustmentBlue="+15" crs:SaturationAdjustmentGreen="-15" crs:SaturationAdjustmentYellow="+10" crs:Shadows2012="+25" crs:Vibrance="+10" crs:Whites2012="+15" crs:ColorGradeMidtoneHue="0" crs:ColorGradeMidtoneSat="0" crs:ColorGradeMidtoneLum="0" crs:ColorGradeHighlightHue="43" crs:ColorGradeHighlightSat="8" crs:ColorGradeHighlightLum="0" crs:ColorGradeShadowHue="230" crs:ColorGradeShadowSat="8" crs:ColorGradeShadowLum="0" crs:ColorGradeGlobalHue="0" crs:ColorGradeGlobalSat="0" crs:ColorGradeGlobalLum="0" crs:ColorGradeBlending="75" crs:ColorGradeBalance="0">
    <crs:Name>
    <rdf:Alt>
    <rdf:li xml:lang="x-default">Epic Landscape</rdf:li>
    </rdf:Alt>
    </crs:Name>
 <crs:Group>
    <rdf:Alt>
    <rdf:li xml:lang="x-default">Genre</rdf:li>
    </rdf:Alt>
    </crs:Group>
 <crs:Look>


 <rdf:Description crs:Name="Adobe Color" crs:Amount="1.000000" crs:UUID="B952C21111114111B1115456789ABCDE" crs:SupportsAmount="True" crs:SupportsMonochrome="False" crs:SupportsOutputReferred="True">
    <crs:Group>
    <rdf:Alt>
    <rdf:li xml:lang="x-default">Profiles</rdf:li>
    </rdf:Alt>
    </crs:Group>
    </rdf:Description>
    </crs:Look>
 <crs:ToneCurvePV2012><rdf:Seq><rdf:li>0, 0</rdf:li><rdf:li>255, 255</rdf:li></rdf:Seq></crs:ToneCurvePV2012><crs:ToneCurvePV2012Red><rdf:Seq><rdf:li>0, 0</rdf:li><rdf:li>255, 255</rdf:li></rdf:Seq></crs:ToneCurvePV2012Red><crs:ToneCurvePV2012Green><rdf:Seq><rdf:li>0, 0</rdf:li><rdf:li>255, 255</rdf:li></rdf:Seq></crs:ToneCurvePV2012Green><crs:ToneCurvePV2012Blue><rdf:Seq><rdf:li>0, 0</rdf:li><rdf:li>255, 255</rdf:li></rdf:Seq></crs:ToneCurvePV2012Blue></rdf:Description>
    </rdf:RDF>
   </x:xmpmeta>