presets/lightroom/Presets/Alternative-Process/06 Platinum Print.xmp
<x:xmpmeta xmlns:crs="http://ns.adobe.com/camera-raw-settings/1.0/" xmlns:rdf="http://www.w3.org/1999/02/22-rdf-syntax-ns#" xmlns:x="adobe:ns:meta/" x:xmptk="Adobe XMP Core 7.0-c000 1.000000, 0000/00/00-00:00:00">
 <rdf:RDF>
 
 <rdf:Description rdf:about="" crs:PresetType="Normal" crs:Cluster="" crs:UUID="C417C949B9024A9ABF316C4C29FBF7C6" crs:SupportsAmount="True" crs:SupportsColor="True" crs:SupportsMonochrome="True" crs:SupportsHighDynamicRange="True" crs:SupportsNormalDynamicRange="True" crs:SupportsSceneReferred="True" crs:SupportsOutputReferred="True" crs:RequiresRenditionBehavior="True" crs:Name="06 Platinum Print" crs:Treatment="Monochrome" crs:ProcessVersion="15.4" crs:HasSettings="True" crs:ConvertToGrayscale="True" crs:Sharpness="10" crs:LuminanceSmoothing="0" crs:Contrast2012="+20" crs:Highlights2012="-15" crs:Shadows2012="+25" crs:Whites2012="0" crs:Blacks2012="-15" crs:GrainAmount="15" crs:GrainSize="20" crs:GrainFrequency="40" crs:GrayMixerRed="+10" crs:GrayMixerOrange="+15" crs:GrayMixerYellow="+10" crs:GrayMixerGreen="0" crs:GrayMixerAqua="-5" crs:GrayMixerBlue="-15" crs:GrayMixerPurple="0" crs:GrayMixerMagenta="+5" crs:ColorGradeShadowHue="40" crs:ColorGradeShadowSat="8" crs:ColorGradeShadowLum="0" crs:ColorGradeMidtoneHue="35" crs:ColorGradeMidtoneSat="5" crs:ColorGradeMidtoneLum="0" crs:ColorGradeHighlightHue="40" crs:ColorGradeHighlightSat="5" crs:ColorGradeHighlightLum="0" crs:ColorGradeGlobalHue="0" crs:ColorGradeGlobalSat="0" crs:ColorGradeGlobalLum="0" crs:ColorGradeBlending="50" crs:ColorGradeBalance="0" crs:Clarity2012="0" crs:Texture="0" crs:Dehaze="0">
  <crs:Name>
   <rdf:Alt>
    <rdf:li xml:lang="x-default">06 Platinum Print</rdf:li>
   </rdf:Alt>
  </crs:Name>
  <crs:Group>
   <rdf:Alt>
    <rdf:li xml:lang="x-default">Alternative Process</rdf:li>
   </rdf:Alt>
  </crs:Group>
  <crs:Look>
  
  <rdf:Description crs:Name="Adobe Monochrome" crs:Amount="1.000000" crs:UUID="0C09521111114111B1115456789ABCDE" crs:SupportsAmount="True" crs:SupportsMonochrome="True" crs:SupportsOutputReferred="True">
   <crs:Group>
    <rdf:Alt>
     <rdf:li xml:lang="x-default">Profiles</rdf:li>
    </rdf:Alt>
   </crs:Group>
  </rdf:Description>
  </crs:Look>
  <crs:ToneCurvePV2012><rdf:Seq><rdf:li>0, 0</rdf:li><rdf:li>255, 255</rdf:li></rdf:Seq></crs:ToneCurvePV2012><crs:ToneCurvePV2012Red><rdf:Seq><rdf:li>0, 0</rdf:li><rdf:li>255, 255</rdf:li></rdf:Seq></crs:ToneCurvePV2012Red><crs:ToneCurvePV2012Green><rdf:Seq><rdf:li>0, 0</rdf:li><rdf:li>255, 255</rdf:li></rdf:Seq></crs:ToneCurvePV2012Green><crs:ToneCurvePV2012Blue><rdf:Seq><rdf:li>0, 0</rdf:li><rdf:li>255, 255</rdf:li></rdf:Seq></crs:ToneCurvePV2012Blue>
 </rdf:Description>
 </rdf:RDF>
</x:xmpmeta>