presets/lightroom/Presets/Alternative-Process/12 Autochrome.xmp
<x:xmpmeta xmlns:crs="http://ns.adobe.com/camera-raw-settings/1.0/" xmlns:rdf="http://www.w3.org/1999/02/22-rdf-syntax-ns#" xmlns:x="adobe:ns:meta/" x:xmptk="Adobe XMP Core 7.0-c000 1.000000, 0000/00/00-00:00:00">
 <rdf:RDF>
 
 <rdf:Description rdf:about="" crs:PresetType="Normal" crs:Cluster="" crs:UUID="EAE2C0DF686C4B48BFF14D457B4FFEE8" crs:SupportsAmount="True" crs:SupportsColor="True" crs:SupportsMonochrome="True" crs:SupportsHighDynamicRange="True" crs:SupportsNormalDynamicRange="True" crs:SupportsSceneReferred="True" crs:SupportsOutputReferred="True" crs:RequiresRenditionBehavior="True" crs:Name="12 Autochrome" crs:Treatment="Color" crs:ProcessVersion="15.4" crs:HasSettings="True" crs:Sharpness="10" crs:LuminanceSmoothing="0" crs:Contrast2012="-15" crs:Highlights2012="-35" crs:Shadows2012="+30" crs:Whites2012="-5" crs:Blacks2012="-5" crs:Saturation="-20" crs:Vibrance="-15" crs:GrainAmount="50" crs:GrainSize="45" crs:GrainFrequency="65" crs:SaturationAdjustmentRed="-15" crs:SaturationAdjustmentOrange="-10" crs:SaturationAdjustmentYellow="+10" crs:SaturationAdjustmentGreen="-20" crs:SaturationAdjustmentAqua="+10" crs:SaturationAdjustmentBlue="-10" crs:SaturationAdjustmentPurple="+5" crs:SaturationAdjustmentMagenta="+5" crs:ColorGradeShadowHue="220" crs:ColorGradeShadowSat="8" crs:ColorGradeShadowLum="0" crs:ColorGradeMidtoneHue="45" crs:ColorGradeMidtoneSat="5" crs:ColorGradeMidtoneLum="0" crs:ColorGradeHighlightHue="40" crs:ColorGradeHighlightSat="8" crs:ColorGradeHighlightLum="0" crs:ColorGradeGlobalHue="0" crs:ColorGradeGlobalSat="0" crs:ColorGradeGlobalLum="0" crs:ColorGradeBlending="75" crs:ColorGradeBalance="0" crs:Clarity2012="0" crs:Texture="0" crs:Dehaze="0" crs:PostCropVignetteAmount="-18" crs:PostCropVignetteMidpoint="42">
  <crs:Name>
   <rdf:Alt>
    <rdf:li xml:lang="x-default">12 Autochrome</rdf:li>
   </rdf:Alt>
  </crs:Name>
  <crs:Group>
   <rdf:Alt>
    <rdf:li xml:lang="x-default">Alternative Process</rdf:li>
   </rdf:Alt>
  </crs:Group>
  <crs:Look>
  
  <rdf:Description crs:Name="Adobe Color" crs:Amount="1.000000" crs:UUID="B952C21111114111B1115456789ABCDE" crs:SupportsAmount="True" crs:SupportsMonochrome="False" crs:SupportsOutputReferred="True">
   <crs:Group>
    <rdf:Alt>
     <rdf:li xml:lang="x-default">Profiles</rdf:li>
    </rdf:Alt>
   </crs:Group>
  </rdf:Description>
  </crs:Look>
  <crs:ToneCurvePV2012><rdf:Seq><rdf:li>0, 20</rdf:li><rdf:li>64, 55</rdf:li><rdf:li>128, 128</rdf:li><rdf:li>192, 196</rdf:li><rdf:li>255, 235</rdf:li></rdf:Seq></crs:ToneCurvePV2012><crs:ToneCurvePV2012Red><rdf:Seq><rdf:li>0, 20</rdf:li><rdf:li>64, 55</rdf:li><rdf:li>128, 128</rdf:li><rdf:li>192, 196</rdf:li><rdf:li>255, 235</rdf:li></rdf:Seq></crs:ToneCurvePV2012Red><crs:ToneCurvePV2012Green><rdf:Seq><rdf:li>0, 20</rdf:li><rdf:li>64, 55</rdf:li><rdf:li>128, 128</rdf:li><rdf:li>192, 196</rdf:li><rdf:li>255, 235</rdf:li></rdf:Seq></crs:ToneCurvePV2012Green><crs:ToneCurvePV2012Blue><rdf:Seq><rdf:li>0, 20</rdf:li><rdf:li>64, 55</rdf:li><rdf:li>128, 128</rdf:li><rdf:li>192, 196</rdf:li><rdf:li>255, 235</rdf:li></rdf:Seq></crs:ToneCurvePV2012Blue>
 </rdf:Description>
 </rdf:RDF>
</x:xmpmeta>