presets/lightroom/Presets/Color-Negative/Agfa Ultra 100.xmp
<x:xmpmeta xmlns:crs="http://ns.adobe.com/camera-raw-settings/1.0/" xmlns:rdf="http://www.w3.org/1999/02/22-rdf-syntax-ns#" xmlns:x="adobe:ns:meta/" x:xmptk="Adobe XMP Core 7.0-c000 1.000000, 0000/00/00-00:00:00">
 <rdf:RDF>
 
 <rdf:Description rdf:about="" crs:PresetType="Normal" crs:Cluster="" crs:UUID="D5F19C72B4C25E3EB8013D9F4C6B7A82" crs:SupportsAmount="True" crs:SupportsColor="True" crs:SupportsMonochrome="True" crs:SupportsHighDynamicRange="True" crs:SupportsNormalDynamicRange="True" crs:SupportsSceneReferred="True" crs:SupportsOutputReferred="True" crs:RequiresRenditionBehavior="True" crs:Name="Agfa Ultra 100" crs:Treatment="Color" crs:ProcessVersion="15.4" crs:HasSettings="True" crs:Blacks2012="-15" crs:Clarity2012="0" crs:Contrast2012="+20" crs:Dehaze="0" crs:Exposure2012="+0.10" crs:Highlights2012="-30" crs:Shadows2012="+15" crs:Whites2012="+15" crs:HueAdjustmentRed="-5" crs:HueAdjustmentOrange="0" crs:HueAdjustmentYellow="-10" crs:HueAdjustmentGreen="+10" crs:HueAdjustmentAqua="0" crs:HueAdjustmentBlue="-5" crs:HueAdjustmentPurple="-10" crs:HueAdjustmentMagenta="-10" crs:SaturationAdjustmentRed="+28" crs:SaturationAdjustmentOrange="+15" crs:SaturationAdjustmentYellow="+12" crs:SaturationAdjustmentGreen="-10" crs:SaturationAdjustmentAqua="0" crs:SaturationAdjustmentBlue="+16" crs:SaturationAdjustmentPurple="-10" crs:SaturationAdjustmentMagenta="-15" crs:LuminanceAdjustmentRed="+10" crs:LuminanceAdjustmentOrange="+10" crs:LuminanceAdjustmentYellow="+5" crs:LuminanceAdjustmentBlue="+5" crs:GrainAmount="25" crs:GrainSize="30" crs:GrainFrequency="50" crs:Sharpness="10" crs:LuminanceSmoothing="0" crs:Texture="0" crs:ColorGradeMidtoneHue="0" crs:ColorGradeMidtoneSat="0" crs:ColorGradeMidtoneLum="0" crs:ColorGradeHighlightHue="35" crs:ColorGradeHighlightSat="8" crs:ColorGradeHighlightLum="0" crs:ColorGradeShadowHue="240" crs:ColorGradeShadowSat="8" crs:ColorGradeShadowLum="0" crs:ColorGradeGlobalHue="0" crs:ColorGradeGlobalSat="0" crs:ColorGradeGlobalLum="0" crs:ColorGradeBlending="50" crs:ColorGradeBalance="0">
 <crs:Name>
 <rdf:Alt>
 <rdf:li xml:lang="x-default">Agfa Ultra 100</rdf:li>
 </rdf:Alt>
 </crs:Name>
 <crs:Group>
 <rdf:Alt>
 <rdf:li xml:lang="x-default">Color Negative</rdf:li>
 </rdf:Alt>
 </crs:Group>
 <crs:Look>
 
 <rdf:Description crs:Name="Adobe Color" crs:Amount="1.000000" crs:UUID="B952C21111114111B1115456789ABCDE" crs:SupportsAmount="True" crs:SupportsMonochrome="False" crs:SupportsOutputReferred="True">
 <crs:Group>
 <rdf:Alt>
 <rdf:li xml:lang="x-default">Profiles</rdf:li>
 </rdf:Alt>
 </crs:Group>
 </rdf:Description>
 </crs:Look>
 <crs:ToneCurvePV2012><rdf:Seq><rdf:li>0, 0</rdf:li><rdf:li>255, 255</rdf:li></rdf:Seq></crs:ToneCurvePV2012><crs:ToneCurvePV2012Red><rdf:Seq><rdf:li>0, 0</rdf:li><rdf:li>255, 255</rdf:li></rdf:Seq></crs:ToneCurvePV2012Red><crs:ToneCurvePV2012Green><rdf:Seq><rdf:li>0, 0</rdf:li><rdf:li>255, 255</rdf:li></rdf:Seq></crs:ToneCurvePV2012Green><crs:ToneCurvePV2012Blue><rdf:Seq><rdf:li>0, 0</rdf:li><rdf:li>255, 255</rdf:li></rdf:Seq></crs:ToneCurvePV2012Blue></rdf:Description>
 </rdf:RDF>
</x:xmpmeta>