presets/lightroom/Presets/Color-Negative/C-Print.xmp
<x:xmpmeta xmlns:crs="http://ns.adobe.com/camera-raw-settings/1.0/" xmlns:rdf="http://www.w3.org/1999/02/22-rdf-syntax-ns#" xmlns:x="adobe:ns:meta/" x:xmptk="Adobe XMP Core 7.0-c000 1.000000, 0000/00/00-00:00:00">
 <rdf:RDF>
 
 
 <rdf:Description rdf:about="" crs:HasSettings="True" crs:RequiresRenditionBehavior="True" crs:SupportsOutputReferred="True" crs:SupportsSceneReferred="True" crs:SupportsNormalDynamicRange="True" crs:SupportsHighDynamicRange="True" crs:SupportsMonochrome="True" crs:SupportsColor="True" crs:SupportsAmount="True" crs:Cluster="" crs:PresetType="Normal" crs:Treatment="Color" crs:ProcessVersion="15.4" crs:Sharpness="10" crs:LuminanceSmoothing="0" crs:Blacks2012="-5" crs:Contrast2012="+25" crs:Exposure2012="+0.10" crs:Highlights2012="-30" crs:Shadows2012="+20" crs:Whites2012="+10" crs:Texture="0" crs:Clarity2012="0" crs:Dehaze="0" crs:GrainAmount="20" crs:GrainSize="22" crs:GrainFrequency="50" crs:Saturation="+5" crs:Vibrance="+5" crs:HueAdjustmentRed="+5" crs:HueAdjustmentGreen="+10" crs:HueAdjustmentBlue="-5" crs:SaturationAdjustmentRed="+10" crs:SaturationAdjustmentOrange="+8" crs:SaturationAdjustmentGreen="+5" crs:SaturationAdjustmentBlue="+10" crs:LuminanceAdjustmentOrange="+8" crs:Name="C-Print" crs:UUID="A7A1D578530D44DF9F36F4025B906DBD" crs:ColorGradeMidtoneHue="0" crs:ColorGradeMidtoneSat="0" crs:ColorGradeMidtoneLum="0" crs:ColorGradeHighlightHue="45" crs:ColorGradeHighlightSat="5" crs:ColorGradeHighlightLum="0" crs:ColorGradeShadowHue="210" crs:ColorGradeShadowSat="5" crs:ColorGradeShadowLum="0" crs:ColorGradeGlobalHue="0" crs:ColorGradeGlobalSat="0" crs:ColorGradeGlobalLum="0" crs:ColorGradeBlending="50" crs:ColorGradeBalance="0">
 <crs:Name>
 <rdf:Alt>
 <rdf:li xml:lang="x-default">C-Print</rdf:li>
 </rdf:Alt>
 </crs:Name>
 <crs:Group>
 <rdf:Alt>
 <rdf:li xml:lang="x-default">Color Negative</rdf:li>
 </rdf:Alt>
 </crs:Group>
 <crs:Look>
 
 
 
 <rdf:Description crs:Name="Adobe Color" crs:Amount="1.000000" crs:UUID="B952C21111114111B1115456789ABCDE" crs:SupportsAmount="True" crs:SupportsMonochrome="False" crs:SupportsOutputReferred="True">
 <crs:Group>
 <rdf:Alt>
 <rdf:li xml:lang="x-default">Profiles</rdf:li>
 </rdf:Alt>
 </crs:Group>
 </rdf:Description>
 </crs:Look>
 <crs:ToneCurvePV2012><rdf:Seq><rdf:li>0, 0</rdf:li><rdf:li>255, 255</rdf:li></rdf:Seq></crs:ToneCurvePV2012><crs:ToneCurvePV2012Red><rdf:Seq><rdf:li>0, 0</rdf:li><rdf:li>255, 255</rdf:li></rdf:Seq></crs:ToneCurvePV2012Red><crs:ToneCurvePV2012Green><rdf:Seq><rdf:li>0, 0</rdf:li><rdf:li>255, 255</rdf:li></rdf:Seq></crs:ToneCurvePV2012Green><crs:ToneCurvePV2012Blue><rdf:Seq><rdf:li>0, 0</rdf:li><rdf:li>255, 255</rdf:li></rdf:Seq></crs:ToneCurvePV2012Blue></rdf:Description>
 </rdf:RDF>
</x:xmpmeta>