presets/lightroom/Presets/Color-Negative/Fujifilm Classic Negative.xmp
<x:xmpmeta xmlns:crs="http://ns.adobe.com/camera-raw-settings/1.0/" xmlns:rdf="http://www.w3.org/1999/02/22-rdf-syntax-ns#" xmlns:x="adobe:ns:meta/" x:xmptk="Adobe XMP Core 7.0-c000 1.000000, 0000/00/00-00:00:00">
 <rdf:RDF>
 
 
 
 <rdf:Description rdf:about="" crs:PresetType="Normal" crs:Cluster="" crs:UUID="278E5C735820435B873307D2B4CBB7DB" crs:SupportsAmount="True" crs:SupportsColor="True" crs:SupportsMonochrome="True" crs:SupportsHighDynamicRange="True" crs:SupportsNormalDynamicRange="True" crs:SupportsSceneReferred="True" crs:SupportsOutputReferred="True" crs:RequiresRenditionBehavior="True" crs:Name="Fujifilm Classic Negative" crs:Treatment="Color" crs:ProcessVersion="15.4" crs:HasSettings="True" crs:Blacks2012="-5" crs:Clarity2012="0" crs:Contrast2012="+24" crs:Dehaze="0" crs:Exposure2012="+0.15" crs:Highlights2012="-38" crs:Shadows2012="+15" crs:Whites2012="0" crs:Saturation="+5" crs:HueAdjustmentRed="+24" crs:HueAdjustmentGreen="+19" crs:HueAdjustmentAqua="+10" crs:HueAdjustmentBlue="-19" crs:SaturationAdjustmentRed="-29" crs:SaturationAdjustmentOrange="-14" crs:SaturationAdjustmentYellow="-34" crs:SaturationAdjustmentGreen="-19" crs:SaturationAdjustmentAqua="-15" crs:SaturationAdjustmentBlue="-14" crs:LuminanceAdjustmentRed="+5" crs:LuminanceAdjustmentOrange="+5" crs:LuminanceAdjustmentGreen="-14" crs:GrainAmount="39" crs:GrainSize="40" crs:GrainFrequency="64" crs:Sharpness="10" crs:LuminanceSmoothing="0" crs:Texture="0" crs:ColorGradeMidtoneHue="0" crs:ColorGradeMidtoneSat="0" crs:ColorGradeMidtoneLum="0" crs:ColorGradeHighlightHue="330" crs:ColorGradeHighlightSat="9.5" crs:ColorGradeHighlightLum="0" crs:ColorGradeShadowHue="160" crs:ColorGradeShadowSat="19" crs:ColorGradeShadowLum="0" crs:ColorGradeGlobalHue="0" crs:ColorGradeGlobalSat="0" crs:ColorGradeGlobalLum="0" crs:ColorGradeBlending="50" crs:ColorGradeBalance="-19">
 <crs:Name>
 <rdf:Alt>
 <rdf:li xml:lang="x-default">Fujifilm Classic Negative</rdf:li>
 </rdf:Alt>
 </crs:Name>
 <crs:Group>
 <rdf:Alt>
 <rdf:li xml:lang="x-default">Color Negative</rdf:li>
 </rdf:Alt>
 </crs:Group>
 <crs:Look>
 
 
 
 <rdf:Description crs:Name="Adobe Color" crs:Amount="1.000000" crs:UUID="B952C21111114111B1115456789ABCDE" crs:SupportsAmount="True" crs:SupportsMonochrome="False" crs:SupportsOutputReferred="True">
 <crs:Group>
 <rdf:Alt>
 <rdf:li xml:lang="x-default">Profiles</rdf:li>
 </rdf:Alt>
 </crs:Group>
 </rdf:Description>
 </crs:Look>
 <crs:ToneCurvePV2012><rdf:Seq><rdf:li>0, 0</rdf:li><rdf:li>255, 255</rdf:li></rdf:Seq></crs:ToneCurvePV2012><crs:ToneCurvePV2012Red><rdf:Seq><rdf:li>0, 0</rdf:li><rdf:li>255, 255</rdf:li></rdf:Seq></crs:ToneCurvePV2012Red><crs:ToneCurvePV2012Green><rdf:Seq><rdf:li>0, 0</rdf:li><rdf:li>255, 255</rdf:li></rdf:Seq></crs:ToneCurvePV2012Green><crs:ToneCurvePV2012Blue><rdf:Seq><rdf:li>0, 0</rdf:li><rdf:li>255, 255</rdf:li></rdf:Seq></crs:ToneCurvePV2012Blue></rdf:Description>
 </rdf:RDF>
</x:xmpmeta>