presets/lightroom/Presets/Color-Negative/Kodak Ektar 100 +1.xmp
<x:xmpmeta xmlns:crs="http://ns.adobe.com/camera-raw-settings/1.0/" xmlns:rdf="http://www.w3.org/1999/02/22-rdf-syntax-ns#" xmlns:x="adobe:ns:meta/" x:xmptk="Adobe XMP Core 7.0-c000 1.000000, 0000/00/00-00:00:00">
 <rdf:RDF>
 
 
 <rdf:Description rdf:about="" crs:PresetType="Normal" crs:Cluster="" crs:UUID="D5189EDE0AC54C2393DAC62B931E0F5A" crs:SupportsAmount="True" crs:SupportsColor="True" crs:SupportsMonochrome="False" crs:SupportsHighDynamicRange="True" crs:SupportsNormalDynamicRange="True" crs:SupportsSceneReferred="True" crs:SupportsOutputReferred="True" crs:RequiresRenditionBehavior="True" crs:Name="Kodak Ektar 100 +1" crs:Treatment="Color" crs:ProcessVersion="15.4" crs:HasSettings="True" crs:Blacks2012="-27" crs:Clarity2012="0" crs:Contrast2012="47" crs:Dehaze="0" crs:Exposure2012="0" crs:Highlights2012="-40" crs:Shadows2012="12" crs:Whites2012="+8" crs:Saturation="10" crs:HueAdjustmentRed="+10" crs:HueAdjustmentOrange="-2.5" crs:HueAdjustmentGreen="+17.5" crs:HueAdjustmentAqua="+5" crs:HueAdjustmentPurple="+5" crs:HueAdjustmentMagenta="+5" crs:SaturationAdjustmentRed="+21" crs:SaturationAdjustmentOrange="+17.5" crs:SaturationAdjustmentYellow="+16" crs:SaturationAdjustmentGreen="+25" crs:SaturationAdjustmentAqua="+15" crs:SaturationAdjustmentBlue="+17.5" crs:SaturationAdjustmentPurple="+7.5" crs:SaturationAdjustmentMagenta="+7.5" crs:LuminanceAdjustmentRed="-10" crs:LuminanceAdjustmentOrange="-5" crs:LuminanceAdjustmentYellow="+10" crs:LuminanceAdjustmentGreen="-15" crs:LuminanceAdjustmentBlue="-15" crs:GrainAmount="20" crs:GrainSize="18" crs:GrainFrequency="60" crs:Sharpness="10" crs:LuminanceSmoothing="0" crs:Texture="0" crs:Amount="1.000000" crs:ColorGradeMidtoneHue="0" crs:ColorGradeMidtoneSat="0" crs:ColorGradeMidtoneLum="0" crs:ColorGradeHighlightHue="45" crs:ColorGradeHighlightSat="5" crs:ColorGradeHighlightLum="0" crs:ColorGradeShadowHue="210" crs:ColorGradeShadowSat="9" crs:ColorGradeShadowLum="0" crs:ColorGradeGlobalHue="0" crs:ColorGradeGlobalSat="0" crs:ColorGradeGlobalLum="0" crs:ColorGradeBlending="50" crs:ColorGradeBalance="0">
 <crs:Name>
 <rdf:Alt>
 <rdf:li xml:lang="x-default">Kodak Ektar 100 +1</rdf:li>
 </rdf:Alt>
 </crs:Name>
 <crs:Group>
 <rdf:Alt>
 <rdf:li xml:lang="x-default">Color Negative</rdf:li>
 </rdf:Alt>
 </crs:Group>
 <crs:Look>
 
 
 
 <rdf:Description crs:Name="Adobe Color" crs:Amount="1.000000" crs:UUID="B952C21111114111B1115456789ABCDE" crs:SupportsAmount="True" crs:SupportsMonochrome="False" crs:SupportsOutputReferred="True">
 <crs:Group>
 <rdf:Alt>
 <rdf:li xml:lang="x-default">Profiles</rdf:li>
 </rdf:Alt>
 </crs:Group>
 </rdf:Description>
 </crs:Look>
 <crs:ToneCurvePV2012><rdf:Seq><rdf:li>0, 0</rdf:li><rdf:li>255, 255</rdf:li></rdf:Seq></crs:ToneCurvePV2012><crs:ToneCurvePV2012Red><rdf:Seq><rdf:li>0, 0</rdf:li><rdf:li>255, 255</rdf:li></rdf:Seq></crs:ToneCurvePV2012Red><crs:ToneCurvePV2012Green><rdf:Seq><rdf:li>0, 0</rdf:li><rdf:li>255, 255</rdf:li></rdf:Seq></crs:ToneCurvePV2012Green><crs:ToneCurvePV2012Blue><rdf:Seq><rdf:li>0, 0</rdf:li><rdf:li>255, 255</rdf:li></rdf:Seq></crs:ToneCurvePV2012Blue></rdf:Description>
 </rdf:RDF>
</x:xmpmeta>