presets/lightroom/Presets/Color-Negative/Kodak Ultramax 400.xmp
<x:xmpmeta xmlns:crs="http://ns.adobe.com/camera-raw-settings/1.0/" xmlns:rdf="http://www.w3.org/1999/02/22-rdf-syntax-ns#" xmlns:x="adobe:ns:meta/" x:xmptk="Adobe XMP Core 7.0-c000 1.000000, 0000/00/00-00:00:00">
 <rdf:RDF>
 
 
 
 <rdf:Description rdf:about="" crs:PresetType="Normal" crs:Cluster="" crs:UUID="88E4F42B446A44A2801C78539FDD94A5" crs:SupportsAmount="True" crs:SupportsColor="True" crs:SupportsMonochrome="True" crs:SupportsHighDynamicRange="True" crs:SupportsNormalDynamicRange="True" crs:SupportsSceneReferred="True" crs:SupportsOutputReferred="True" crs:RequiresRenditionBehavior="True" crs:Name="Kodak Ultramax 400" crs:Treatment="Color" crs:ProcessVersion="15.4" crs:HasSettings="True" crs:Blacks2012="-18" crs:Clarity2012="0" crs:Contrast2012="+22" crs:Dehaze="0" crs:Exposure2012="+0.15" crs:Highlights2012="-28" crs:Shadows2012="+16" crs:Whites2012="+10" crs:Saturation="-3.5" crs:Vibrance="+1.5" crs:HueAdjustmentRed="+6.5" crs:HueAdjustmentOrange="-4" crs:HueAdjustmentYellow="-11" crs:HueAdjustmentGreen="-17.5" crs:HueAdjustmentAqua="-5" crs:HueAdjustmentBlue="+2.5" crs:HueAdjustmentPurple="+5" crs:HueAdjustmentMagenta="+5" crs:SaturationAdjustmentRed="+17.5" crs:SaturationAdjustmentOrange="+25" crs:SaturationAdjustmentYellow="+13" crs:SaturationAdjustmentGreen="-5" crs:SaturationAdjustmentAqua="-10" crs:SaturationAdjustmentBlue="-5" crs:SaturationAdjustmentPurple="-10" crs:SaturationAdjustmentMagenta="-5" crs:LuminanceAdjustmentRed="-4.5" crs:LuminanceAdjustmentOrange="-3.5" crs:LuminanceAdjustmentYellow="-6.5" crs:LuminanceAdjustmentGreen="-14" crs:LuminanceAdjustmentAqua="+3" crs:LuminanceAdjustmentBlue="-14" crs:LuminanceAdjustmentPurple="+3" crs:GrainAmount="32" crs:GrainSize="31" crs:GrainFrequency="56" crs:Sharpness="10" crs:LuminanceSmoothing="0" crs:Texture="0" crs:ColorGradeMidtoneHue="0" crs:ColorGradeMidtoneSat="0" crs:ColorGradeMidtoneLum="0" crs:ColorGradeHighlightHue="42" crs:ColorGradeHighlightSat="17.5" crs:ColorGradeHighlightLum="0" crs:ColorGradeShadowHue="205" crs:ColorGradeShadowSat="13" crs:ColorGradeShadowLum="0" crs:ColorGradeGlobalHue="0" crs:ColorGradeGlobalSat="0" crs:ColorGradeGlobalLum="0" crs:ColorGradeBlending="50" crs:ColorGradeBalance="+22">
 <crs:Name>
 <rdf:Alt>
 <rdf:li xml:lang="x-default">Kodak Ultramax 400</rdf:li>
 </rdf:Alt>
 </crs:Name>
 <crs:Group>
 <rdf:Alt>
 <rdf:li xml:lang="x-default">Color Negative</rdf:li>
 </rdf:Alt>
 </crs:Group>
 <crs:Look>
 
 
 
 <rdf:Description crs:Name="Adobe Color" crs:Amount="1.000000" crs:UUID="B952C21111114111B1115456789ABCDE" crs:SupportsAmount="True" crs:SupportsMonochrome="False" crs:SupportsOutputReferred="True">
 <crs:Group>
 <rdf:Alt>
 <rdf:li xml:lang="x-default">Profiles</rdf:li>
 </rdf:Alt>
 </crs:Group>
 </rdf:Description>
 </crs:Look>
 <crs:ToneCurvePV2012><rdf:Seq><rdf:li>0, 0</rdf:li><rdf:li>255, 255</rdf:li></rdf:Seq></crs:ToneCurvePV2012><crs:ToneCurvePV2012Red><rdf:Seq><rdf:li>0, 0</rdf:li><rdf:li>255, 255</rdf:li></rdf:Seq></crs:ToneCurvePV2012Red><crs:ToneCurvePV2012Green><rdf:Seq><rdf:li>0, 0</rdf:li><rdf:li>255, 255</rdf:li></rdf:Seq></crs:ToneCurvePV2012Green><crs:ToneCurvePV2012Blue><rdf:Seq><rdf:li>0, 0</rdf:li><rdf:li>255, 255</rdf:li></rdf:Seq></crs:ToneCurvePV2012Blue></rdf:Description>
 </rdf:RDF>
</x:xmpmeta>