presets/lightroom/Presets/Color-Negative/ORWO NC 500.xmp
<x:xmpmeta xmlns:crs="http://ns.adobe.com/camera-raw-settings/1.0/" xmlns:rdf="http://www.w3.org/1999/02/22-rdf-syntax-ns#" xmlns:x="adobe:ns:meta/" x:xmptk="Adobe XMP Core 7.0-c000 1.000000, 0000/00/00-00:00:00">
 <rdf:RDF>
 
 
 
 
 <rdf:Description rdf:about="" crs:PresetType="Normal" crs:Cluster="" crs:UUID="NC500A1B2C3D4E5F6G7H8I9J0K1L2MN" crs:SupportsAmount="True" crs:SupportsColor="True" crs:SupportsMonochrome="True" crs:SupportsHighDynamicRange="True" crs:SupportsNormalDynamicRange="True" crs:SupportsSceneReferred="True" crs:SupportsOutputReferred="True" crs:RequiresRenditionBehavior="True" crs:Name="ORWO NC 500" crs:Treatment="Color" crs:ProcessVersion="15.4" crs:HasSettings="True" crs:Contrast2012="+10" crs:Highlights2012="-25" crs:Shadows2012="+20" crs:Whites2012="0" crs:Blacks2012="-20" crs:Clarity2012="0" crs:Texture="0" crs:Dehaze="0" crs:Saturation="-10" crs:Vibrance="-5" crs:HueAdjustmentRed="+15" crs:HueAdjustmentOrange="+5" crs:HueAdjustmentYellow="-5" crs:HueAdjustmentGreen="+15" crs:HueAdjustmentBlue="-15" crs:SaturationAdjustmentRed="-5" crs:SaturationAdjustmentOrange="+10" crs:SaturationAdjustmentYellow="-5" crs:SaturationAdjustmentGreen="-15" crs:SaturationAdjustmentAqua="-10" crs:SaturationAdjustmentBlue="-10" crs:LuminanceAdjustmentGreen="-5" crs:LuminanceAdjustmentBlue="-5" crs:GrainAmount="35" crs:GrainSize="32" crs:GrainFrequency="58" crs:Sharpness="10" crs:LuminanceSmoothing="0" crs:ColorGradeMidtoneHue="35" crs:ColorGradeMidtoneSat="5" crs:ColorGradeMidtoneLum="0" crs:ColorGradeHighlightHue="25" crs:ColorGradeHighlightSat="12" crs:ColorGradeHighlightLum="0" crs:ColorGradeShadowHue="30" crs:ColorGradeShadowSat="10" crs:ColorGradeShadowLum="0" crs:ColorGradeGlobalHue="0" crs:ColorGradeGlobalSat="0" crs:ColorGradeGlobalLum="0" crs:ColorGradeBlending="50" crs:ColorGradeBalance="0">
 <crs:Name>
 <rdf:Alt>
 <rdf:li xml:lang="x-default">ORWO NC 500</rdf:li>
 </rdf:Alt>
 </crs:Name>
 <crs:Group>
 <rdf:Alt>
 <rdf:li xml:lang="x-default">Color Negative</rdf:li>
 </rdf:Alt>
 </crs:Group>
 <crs:Look>
 
 
 
 
 <rdf:Description crs:Name="Adobe Color" crs:Amount="1.000000" crs:UUID="B952C21111114111B1115456789ABCDE" crs:SupportsAmount="True" crs:SupportsMonochrome="False" crs:SupportsOutputReferred="True">
 <crs:Group>
 <rdf:Alt>
 <rdf:li xml:lang="x-default">Profiles</rdf:li>
 </rdf:Alt>
 </crs:Group>
 </rdf:Description>
 </crs:Look>
 <crs:ToneCurvePV2012><rdf:Seq><rdf:li>0, 0</rdf:li><rdf:li>255, 255</rdf:li></rdf:Seq></crs:ToneCurvePV2012><crs:ToneCurvePV2012Red><rdf:Seq><rdf:li>0, 0</rdf:li><rdf:li>255, 255</rdf:li></rdf:Seq></crs:ToneCurvePV2012Red><crs:ToneCurvePV2012Green><rdf:Seq><rdf:li>0, 0</rdf:li><rdf:li>255, 255</rdf:li></rdf:Seq></crs:ToneCurvePV2012Green><crs:ToneCurvePV2012Blue><rdf:Seq><rdf:li>0, 0</rdf:li><rdf:li>255, 255</rdf:li></rdf:Seq></crs:ToneCurvePV2012Blue></rdf:Description>
 </rdf:RDF>
</x:xmpmeta>