presets/lightroom/Presets/Color-Negative/RA-4 Color Print.xmp
<x:xmpmeta xmlns:crs="http://ns.adobe.com/camera-raw-settings/1.0/" xmlns:rdf="http://www.w3.org/1999/02/22-rdf-syntax-ns#" xmlns:x="adobe:ns:meta/" x:xmptk="Adobe XMP Core 7.0-c000 1.000000, 0000/00/00-00:00:00">
 <rdf:RDF>
 
 
 <rdf:Description rdf:about="" crs:HasSettings="True" crs:RequiresRenditionBehavior="True" crs:SupportsOutputReferred="True" crs:SupportsSceneReferred="True" crs:SupportsNormalDynamicRange="True" crs:SupportsHighDynamicRange="True" crs:SupportsMonochrome="True" crs:SupportsColor="True" crs:SupportsAmount="True" crs:Cluster="" crs:PresetType="Normal" crs:Treatment="Color" crs:ProcessVersion="15.4" crs:Sharpness="10" crs:LuminanceSmoothing="0" crs:Blacks2012="+10" crs:Contrast2012="+18" crs:Exposure2012="+0.15" crs:Highlights2012="-35" crs:Shadows2012="+25" crs:Whites2012="-5" crs:Texture="0" crs:Clarity2012="0" crs:Dehaze="0" crs:GrainAmount="15" crs:GrainSize="20" crs:GrainFrequency="50" crs:Saturation="-3" crs:Vibrance="-1" crs:HueAdjustmentRed="+5" crs:HueAdjustmentOrange="-3" crs:HueAdjustmentYellow="-5" crs:HueAdjustmentGreen="+10" crs:SaturationAdjustmentRed="+5" crs:SaturationAdjustmentOrange="+5" crs:SaturationAdjustmentGreen="-10" crs:SaturationAdjustmentBlue="-5" crs:LuminanceAdjustmentOrange="+5" crs:Name="RA-4 Color Print" crs:UUID="B6FF0B2BF54140CDA10FB29F8829F792" crs:ColorGradeMidtoneHue="0" crs:ColorGradeMidtoneSat="0" crs:ColorGradeMidtoneLum="0" crs:ColorGradeHighlightHue="45" crs:ColorGradeHighlightSat="8" crs:ColorGradeHighlightLum="0" crs:ColorGradeShadowHue="50" crs:ColorGradeShadowSat="5" crs:ColorGradeShadowLum="0" crs:ColorGradeGlobalHue="0" crs:ColorGradeGlobalSat="0" crs:ColorGradeGlobalLum="0" crs:ColorGradeBlending="50" crs:ColorGradeBalance="+10">
 <crs:Name>
 <rdf:Alt>
 <rdf:li xml:lang="x-default">RA-4 Color Print</rdf:li>
 </rdf:Alt>
 </crs:Name>
 <crs:Group>
 <rdf:Alt>
 <rdf:li xml:lang="x-default">Color Negative</rdf:li>
 </rdf:Alt>
 </crs:Group>
 <crs:Look>
 
 
 
 <rdf:Description crs:Name="Adobe Color" crs:Amount="1.000000" crs:UUID="B952C21111114111B1115456789ABCDE" crs:SupportsAmount="True" crs:SupportsMonochrome="False" crs:SupportsOutputReferred="True">
 <crs:Group>
 <rdf:Alt>
 <rdf:li xml:lang="x-default">Profiles</rdf:li>
 </rdf:Alt>
 </crs:Group>
 </rdf:Description>
 </crs:Look>
 <crs:ToneCurvePV2012><rdf:Seq><rdf:li>0, 0</rdf:li><rdf:li>255, 255</rdf:li></rdf:Seq></crs:ToneCurvePV2012><crs:ToneCurvePV2012Red><rdf:Seq><rdf:li>0, 0</rdf:li><rdf:li>255, 255</rdf:li></rdf:Seq></crs:ToneCurvePV2012Red><crs:ToneCurvePV2012Green><rdf:Seq><rdf:li>0, 0</rdf:li><rdf:li>255, 255</rdf:li></rdf:Seq></crs:ToneCurvePV2012Green><crs:ToneCurvePV2012Blue><rdf:Seq><rdf:li>0, 0</rdf:li><rdf:li>255, 255</rdf:li></rdf:Seq></crs:ToneCurvePV2012Blue></rdf:Description>
 </rdf:RDF>
</x:xmpmeta>