presets/lightroom/Presets/Mobile/Filmic Casual.xmp
<x:xmpmeta xmlns:crs="http://ns.adobe.com/camera-raw-settings/1.0/" xmlns:rdf="http://www.w3.org/1999/02/22-rdf-syntax-ns#" xmlns:x="adobe:ns:meta/" x:xmptk="Adobe XMP Core 7.0-c000 1.000000, 0000/00/00-00:00:00">
 <rdf:RDF>


 <rdf:Description rdf:about="" crs:PresetType="Normal" crs:Cluster="" crs:UUID="C2FFF27D6D2544B49D2B468D782FC25D" crs:SupportsAmount="True" crs:SupportsColor="True" crs:SupportsMonochrome="True" crs:SupportsHighDynamicRange="True" crs:SupportsNormalDynamicRange="True" crs:SupportsSceneReferred="True" crs:SupportsOutputReferred="True" crs:RequiresRenditionBehavior="True" crs:Name="Filmic Casual" crs:Treatment="Color" crs:ProcessVersion="15.4" crs:HasSettings="True" crs:LuminanceSmoothing="0" crs:Sharpness="10" crs:ColorGradeGlobalHue="0" crs:ColorGradeGlobalSat="0" crs:ColorGradeGlobalLum="0" crs:Exposure2012="0" crs:Contrast2012="+15" crs:Highlights2012="-40" crs:Shadows2012="+20" crs:Whites2012="+10" crs:Blacks2012="-10" crs:Clarity2012="0" crs:Dehaze="0" crs:Saturation="0" crs:Vibrance="0" crs:Texture="0" crs:HueAdjustmentGreen="-20" crs:SaturationAdjustmentGreen="-15" crs:SaturationAdjustmentOrange="-5" crs:LuminanceAdjustmentOrange="+5" crs:ColorGradeShadowHue="210" crs:ColorGradeShadowSat="5" crs:ColorGradeHighlightHue="40" crs:ColorGradeHighlightSat="5" crs:ColorGradeBlending="50">
 <crs:Name>
 <rdf:Alt>
 <rdf:li xml:lang="x-default">Filmic Casual</rdf:li>
 </rdf:Alt>
 </crs:Name>
 <crs:Group>
 <rdf:Alt>
 <rdf:li xml:lang="x-default">Mobile</rdf:li>
 </rdf:Alt>
 </crs:Group>
 <crs:Look>


 <rdf:Description crs:Name="Adobe Color" crs:Amount="1.000000" crs:UUID="B952C21111114111B1115456789ABCDE" crs:SupportsAmount="True" crs:SupportsMonochrome="False" crs:SupportsOutputReferred="True">
 <crs:Group>
 <rdf:Alt>
 <rdf:li xml:lang="x-default">Profiles</rdf:li>
 </rdf:Alt>
 </crs:Group>
 </rdf:Description>
 </crs:Look>
 <crs:ToneCurvePV2012><rdf:Seq><rdf:li>0, 20</rdf:li><rdf:li>64, 55</rdf:li><rdf:li>128, 128</rdf:li><rdf:li>192, 196</rdf:li><rdf:li>255, 235</rdf:li></rdf:Seq></crs:ToneCurvePV2012><crs:ToneCurvePV2012Red><rdf:Seq><rdf:li>0, 20</rdf:li><rdf:li>64, 55</rdf:li><rdf:li>128, 128</rdf:li><rdf:li>192, 196</rdf:li><rdf:li>255, 235</rdf:li></rdf:Seq></crs:ToneCurvePV2012Red><crs:ToneCurvePV2012Green><rdf:Seq><rdf:li>0, 20</rdf:li><rdf:li>64, 55</rdf:li><rdf:li>128, 128</rdf:li><rdf:li>192, 196</rdf:li><rdf:li>255, 235</rdf:li></rdf:Seq></crs:ToneCurvePV2012Green><crs:ToneCurvePV2012Blue><rdf:Seq><rdf:li>0, 20</rdf:li><rdf:li>64, 55</rdf:li><rdf:li>128, 128</rdf:li><rdf:li>192, 196</rdf:li><rdf:li>255, 235</rdf:li></rdf:Seq></crs:ToneCurvePV2012Blue></rdf:Description>
 </rdf:RDF>
</x:xmpmeta>
