presets/lightroom/Presets/Creative/1980s VHS Synthwave.xmp
<x:xmpmeta xmlns:crs="http://ns.adobe.com/camera-raw-settings/1.0/" xmlns:rdf="http://www.w3.org/1999/02/22-rdf-syntax-ns#" xmlns:x="adobe:ns:meta/" x:xmptk="Adobe XMP Core 7.0-c000 1.000000, 0000/00/00-00:00:00">
 <rdf:RDF>
 
 
 
 <rdf:Description rdf:about="" crs:PresetType="Normal" crs:Cluster="" crs:UUID="10266C01A199423D80D8EF1D437CEA44" crs:SupportsAmount="True" crs:SupportsColor="True" crs:SupportsMonochrome="True" crs:SupportsHighDynamicRange="True" crs:SupportsNormalDynamicRange="True" crs:SupportsSceneReferred="True" crs:SupportsOutputReferred="True" crs:RequiresRenditionBehavior="True" crs:Name="1980s VHS Synthwave" crs:Treatment="Color" crs:ProcessVersion="15.4" crs:LuminanceSmoothing="0" crs:Sharpness="10" crs:HasSettings="True" crs:Blacks2012="0" crs:Clarity2012="-23" crs:Contrast2012="+32" crs:Dehaze="-15" crs:Exposure2012="+0.25" crs:GrainAmount="45" crs:GrainRoughness="70" crs:GrainSize="42" crs:Highlights2012="-90" crs:HueAdjustmentAqua="+13" crs:HueAdjustmentBlue="-20" crs:HueAdjustmentGreen="-45" crs:HueAdjustmentMagenta="+10" crs:HueAdjustmentOrange="-10" crs:HueAdjustmentPurple="+23" crs:HueAdjustmentRed="+20" crs:HueAdjustmentYellow="0" crs:LuminanceAdjustmentAqua="+13" crs:LuminanceAdjustmentBlue="-15" crs:LuminanceAdjustmentGreen="-15" crs:LuminanceAdjustmentMagenta="+10" crs:LuminanceAdjustmentOrange="-5" crs:LuminanceAdjustmentPurple="-8" crs:LuminanceAdjustmentRed="-8" crs:LuminanceAdjustmentYellow="+10" crs:PostCropVignetteAmount="-15" crs:PostCropVignetteFeather="65" crs:PostCropVignetteMidpoint="42" crs:Saturation="0" crs:SaturationAdjustmentAqua="+28" crs:SaturationAdjustmentBlue="+10" crs:SaturationAdjustmentGreen="-60" crs:SaturationAdjustmentMagenta="+33" crs:SaturationAdjustmentOrange="+15" crs:SaturationAdjustmentPurple="+30" crs:SaturationAdjustmentRed="+20" crs:SaturationAdjustmentYellow="-10" crs:Shadows2012="+50" crs:Texture="-25" crs:Whites2012="+22" crs:ColorGradeMidtoneHue="0" crs:ColorGradeMidtoneSat="0" crs:ColorGradeMidtoneLum="0" crs:ColorGradeHighlightHue="310" crs:ColorGradeHighlightSat="32" crs:ColorGradeHighlightLum="0" crs:ColorGradeShadowHue="200" crs:ColorGradeShadowSat="22" crs:ColorGradeShadowLum="0" crs:ColorGradeGlobalHue="0" crs:ColorGradeGlobalSat="0" crs:ColorGradeGlobalLum="0" crs:ColorGradeBlending="75" crs:ColorGradeBalance="+30">
 <crs:Name>
 <rdf:Alt>
 <rdf:li xml:lang="x-default">1980s VHS Synthwave</rdf:li>
 </rdf:Alt>
 </crs:Name>
 <crs:Group>
 <rdf:Alt>
 <rdf:li xml:lang="x-default">Creative</rdf:li>
 </rdf:Alt>
 </crs:Group>
 <crs:Look>
 
 
 
 <rdf:Description crs:Name="Adobe Color" crs:Amount="1.000000" crs:UUID="B952C21111114111B1115456789ABCDE" crs:SupportsAmount="True" crs:SupportsMonochrome="False" crs:SupportsOutputReferred="True">
 <crs:Group>
 <rdf:Alt>
 <rdf:li xml:lang="x-default">Profiles</rdf:li>
 </rdf:Alt>
 </crs:Group>
 </rdf:Description>
 </crs:Look>
 <crs:ToneCurvePV2012><rdf:Seq><rdf:li>0, 20</rdf:li><rdf:li>64, 55</rdf:li><rdf:li>128, 128</rdf:li><rdf:li>192, 196</rdf:li><rdf:li>255, 235</rdf:li></rdf:Seq></crs:ToneCurvePV2012><crs:ToneCurvePV2012Red><rdf:Seq><rdf:li>0, 20</rdf:li><rdf:li>64, 55</rdf:li><rdf:li>128, 128</rdf:li><rdf:li>192, 196</rdf:li><rdf:li>255, 235</rdf:li></rdf:Seq></crs:ToneCurvePV2012Red><crs:ToneCurvePV2012Green><rdf:Seq><rdf:li>0, 20</rdf:li><rdf:li>64, 55</rdf:li><rdf:li>128, 128</rdf:li><rdf:li>192, 196</rdf:li><rdf:li>255, 235</rdf:li></rdf:Seq></crs:ToneCurvePV2012Green><crs:ToneCurvePV2012Blue><rdf:Seq><rdf:li>0, 20</rdf:li><rdf:li>64, 55</rdf:li><rdf:li>128, 128</rdf:li><rdf:li>192, 196</rdf:li><rdf:li>255, 235</rdf:li></rdf:Seq></crs:ToneCurvePV2012Blue></rdf:Description>
 </rdf:RDF>
</x:xmpmeta>