presets/lightroom/Presets/Creative/Faded Summer Expired.xmp
<x:xmpmeta xmlns:crs="http://ns.adobe.com/camera-raw-settings/1.0/" xmlns:rdf="http://www.w3.org/1999/02/22-rdf-syntax-ns#" xmlns:x="adobe:ns:meta/" x:xmptk="Adobe XMP Core 7.0-c000 1.000000, 0000/00/00-00:00:00">
 <rdf:RDF>
 
 
 
 <rdf:Description rdf:about="" crs:PresetType="Normal" crs:Cluster="" crs:UUID="1AEC50F5CDB84BB19472951B8B9056FC" crs:SupportsAmount="True" crs:SupportsColor="True" crs:SupportsMonochrome="True" crs:SupportsHighDynamicRange="True" crs:SupportsNormalDynamicRange="True" crs:SupportsSceneReferred="True" crs:SupportsOutputReferred="True" crs:RequiresRenditionBehavior="True" crs:Name="12 Faded Summer Expired" crs:Treatment="Color" crs:ProcessVersion="15.4" crs:LuminanceSmoothing="0" crs:Sharpness="10" crs:HasSettings="True" crs:Blacks2012="0" crs:Contrast2012="-38.75" crs:Exposure2012="+1.00" crs:GrainAmount="48.75" crs:GrainFrequency="70" crs:GrainSize="42.5" crs:Highlights2012="-70" crs:HueAdjustmentAqua="+15" crs:HueAdjustmentBlue="-10" crs:HueAdjustmentGreen="+37.5" crs:HueAdjustmentMagenta="+10" crs:HueAdjustmentOrange="-5" crs:HueAdjustmentPurple="0" crs:HueAdjustmentRed="+10" crs:HueAdjustmentYellow="-15" crs:LuminanceAdjustmentAqua="0" crs:LuminanceAdjustmentBlue="+5" crs:LuminanceAdjustmentGreen="-10" crs:LuminanceAdjustmentMagenta="0" crs:LuminanceAdjustmentOrange="+10" crs:LuminanceAdjustmentPurple="0" crs:LuminanceAdjustmentRed="+5" crs:LuminanceAdjustmentYellow="+5" crs:PostCropVignetteAmount="-14" crs:SaturationAdjustmentAqua="-20" crs:SaturationAdjustmentBlue="-20" crs:SaturationAdjustmentGreen="-38.75" crs:SaturationAdjustmentMagenta="-15" crs:SaturationAdjustmentOrange="-15" crs:SaturationAdjustmentPurple="-20" crs:SaturationAdjustmentRed="-10" crs:SaturationAdjustmentYellow="-15" crs:Shadows2012="+40" crs:Whites2012="+20" crs:ColorGradeMidtoneHue="0" crs:ColorGradeMidtoneSat="0" crs:ColorGradeMidtoneLum="0" crs:ColorGradeHighlightHue="45" crs:ColorGradeHighlightSat="7.5" crs:ColorGradeHighlightLum="0" crs:ColorGradeShadowHue="46.25" crs:ColorGradeShadowSat="20" crs:ColorGradeShadowLum="0" crs:ColorGradeGlobalHue="0" crs:ColorGradeGlobalSat="0" crs:ColorGradeGlobalLum="0" crs:ColorGradeBlending="75" crs:ColorGradeBalance="0">
 <crs:Name>
 <rdf:Alt>
 <rdf:li xml:lang="x-default">12 Faded Summer Expired</rdf:li>
 </rdf:Alt>
 </crs:Name>
 <crs:Group>
 <rdf:Alt>
 <rdf:li xml:lang="x-default">Creative</rdf:li>
 </rdf:Alt>
 </crs:Group>
 <crs:Look>
 
 
 
 <rdf:Description crs:Name="Adobe Color" crs:Amount="1.000000" crs:UUID="B952C21111114111B1115456789ABCDE" crs:SupportsAmount="True" crs:SupportsMonochrome="False" crs:SupportsOutputReferred="True">
 <crs:Group>
 <rdf:Alt>
 <rdf:li xml:lang="x-default">Profiles</rdf:li>
 </rdf:Alt>
 </crs:Group>
 </rdf:Description>
 </crs:Look>
 <crs:ToneCurvePV2012><rdf:Seq><rdf:li>0, 20</rdf:li><rdf:li>64, 55</rdf:li><rdf:li>128, 128</rdf:li><rdf:li>192, 196</rdf:li><rdf:li>255, 235</rdf:li></rdf:Seq></crs:ToneCurvePV2012><crs:ToneCurvePV2012Red><rdf:Seq><rdf:li>0, 20</rdf:li><rdf:li>64, 55</rdf:li><rdf:li>128, 128</rdf:li><rdf:li>192, 196</rdf:li><rdf:li>255, 235</rdf:li></rdf:Seq></crs:ToneCurvePV2012Red><crs:ToneCurvePV2012Green><rdf:Seq><rdf:li>0, 20</rdf:li><rdf:li>64, 55</rdf:li><rdf:li>128, 128</rdf:li><rdf:li>192, 196</rdf:li><rdf:li>255, 235</rdf:li></rdf:Seq></crs:ToneCurvePV2012Green><crs:ToneCurvePV2012Blue><rdf:Seq><rdf:li>0, 20</rdf:li><rdf:li>64, 55</rdf:li><rdf:li>128, 128</rdf:li><rdf:li>192, 196</rdf:li><rdf:li>255, 235</rdf:li></rdf:Seq></crs:ToneCurvePV2012Blue></rdf:Description>
 </rdf:RDF>
</x:xmpmeta>