presets/lightroom/Presets/Creative/High-Key Candy Architecture.xmp
<x:xmpmeta xmlns:x="adobe:ns:meta/" x:xmptk="Adobe XMP Core 7.0-c000 1.000000, 0000/00/00-00:00:00        ">
 <rdf:RDF xmlns:rdf="http://www.w3.org/1999/02/22-rdf-syntax-ns#">
  <rdf:Description rdf:about=""
   xmlns:crs="http://ns.adobe.com/camera-raw-settings/1.0/"
   crs:PresetType="Normal"
   crs:Cluster=""
   crs:UUID="A1B2C3D4E5F6G7H8I9J0K1L2M3N4O5P7"
   crs:SupportsAmount="True"
   crs:SupportsColor="True"
   crs:SupportsMonochrome="True"
   crs:SupportsHighDynamicRange="True"
   crs:SupportsNormalDynamicRange="True"
   crs:SupportsSceneReferred="True"
   crs:SupportsOutputReferred="True"
   crs:RequiresRenditionBehavior="True"
   crs:Name="High-Key Candy Architecture"
   crs:Treatment="Color"
   crs:ProcessVersion="15.4"
   crs:HasSettings="True"

   crs:Temperature="6000"
   crs:Tint="+10"
   crs:Exposure2012="+1.60"
   crs:Contrast2012="-20"
   crs:Highlights2012="-65"
   crs:Shadows2012="+75"
   crs:Whites2012="+15"
   crs:Blacks2012="+10"

   crs:Clarity2012="-10"
   crs:Dehaze="0"
   crs:Texture="0"
   crs:Vibrance="+35"
   crs:Saturation="-5"

   crs:HueAdjustmentRed="+10"
   crs:HueAdjustmentOrange="-5"
   crs:HueAdjustmentYellow="0"
   crs:HueAdjustmentGreen="0"
   crs:HueAdjustmentAqua="+10"
   crs:HueAdjustmentBlue="-35"
   crs:HueAdjustmentPurple="0"
   crs:HueAdjustmentMagenta="0"

   crs:SaturationAdjustmentRed="+10"
   crs:SaturationAdjustmentOrange="+25"
   crs:SaturationAdjustmentYellow="0"
   crs:SaturationAdjustmentGreen="0"
   crs:SaturationAdjustmentAqua="+15"
   crs:SaturationAdjustmentBlue="+15"
   crs:SaturationAdjustmentPurple="0"
   crs:SaturationAdjustmentMagenta="0"

   crs:LuminanceAdjustmentRed="+20"
   crs:LuminanceAdjustmentOrange="+35"
   crs:LuminanceAdjustmentYellow="0"
   crs:LuminanceAdjustmentGreen="0"
   crs:LuminanceAdjustmentAqua="+15"
   crs:LuminanceAdjustmentBlue="+45"
   crs:LuminanceAdjustmentPurple="0"
   crs:LuminanceAdjustmentMagenta="0"

   crs:ColorGradeMidtoneHue="45"
   crs:ColorGradeMidtoneSat="5"
   crs:ColorGradeMidtoneLum="0"
   crs:ColorGradeHighlightHue="45"
   crs:ColorGradeHighlightSat="10"
   crs:ColorGradeHighlightLum="0"
   crs:ColorGradeShadowHue="210"
   crs:ColorGradeShadowSat="5"
   crs:ColorGradeShadowLum="0"
   crs:ColorGradeGlobalHue="0"
   crs:ColorGradeGlobalSat="0"
   crs:ColorGradeGlobalLum="0"
   crs:ColorGradeBlending="75"
   crs:ColorGradeBalance="0"

   crs:RedHue="+5"
   crs:RedSaturation="+5"
   crs:GreenHue="0"
   crs:GreenSaturation="0"
   crs:BlueHue="-20"
   crs:BlueSaturation="+5"

   crs:GrainAmount="10"
   crs:GrainSize="25"
   crs:GrainFrequency="50"
   crs:Sharpness="15"
   crs:LuminanceSmoothing="10"
   crs:ColorNoiseReduction="10">

   <crs:Name>
    <rdf:Alt>
     <rdf:li xml:lang="x-default">High-Key Candy Architecture</rdf:li>
    </rdf:Alt>
   </crs:Name>

   <crs:Group>
    <rdf:Alt>
     <rdf:li xml:lang="x-default">Creative Architecture</rdf:li>
    </rdf:Alt>
   </crs:Group>

   <crs:ToneCurvePV2012>
    <rdf:Seq>
     <rdf:li>0, 15</rdf:li>
     <rdf:li>45, 45</rdf:li>
     <rdf:li>128, 128</rdf:li>
     <rdf:li>192, 196</rdf:li>
     <rdf:li>255, 245</rdf:li>
    </rdf:Seq>
   </crs:ToneCurvePV2012>

   <crs:ToneCurvePV2012Red>
    <rdf:Seq>
     <rdf:li>0, 0</rdf:li>
     <rdf:li>255, 255</rdf:li>
    </rdf:Seq>
   </crs:ToneCurvePV2012Red>

   <crs:ToneCurvePV2012Green>
    <rdf:Seq>
     <rdf:li>0, 0</rdf:li>
     <rdf:li>255, 255</rdf:li>
    </rdf:Seq>
   </crs:ToneCurvePV2012Green>

   <crs:ToneCurvePV2012Blue>
    <rdf:Seq>
     <rdf:li>0, 0</rdf:li>
     <rdf:li>255, 255</rdf:li>
    </rdf:Seq>
   </crs:ToneCurvePV2012Blue>

   <crs:Look>
    <rdf:Description
     crs:Name="Adobe Color"
     crs:Amount="1.000000"
     crs:UUID="B952C21111114111B1115456789ABCDE"
     crs:SupportsAmount="True"
     crs:SupportsMonochrome="False"
     crs:SupportsOutputReferred="True">
     <crs:Group>
      <rdf:Alt>
       <rdf:li xml:lang="x-default">Profiles</rdf:li>
      </rdf:Alt>
     </crs:Group>
    </rdf:Description>
   </crs:Look>
  </rdf:Description>
 </rdf:RDF>
</x:xmpmeta>
