presets/lightroom/Presets/Creative/Lomography Cross-Processed.xmp
<x:xmpmeta xmlns:crs="http://ns.adobe.com/camera-raw-settings/1.0/" xmlns:rdf="http://www.w3.org/1999/02/22-rdf-syntax-ns#" xmlns:x="adobe:ns:meta/" x:xmptk="Adobe XMP Core 7.0-c000 1.000000, 0000/00/00-00:00:00">
 <rdf:RDF>
 
 
 
 <rdf:Description rdf:about="" crs:PresetType="Normal" crs:Cluster="" crs:UUID="07E073B4C1804D90B298B8D00347A456" crs:SupportsAmount="True" crs:SupportsColor="True" crs:SupportsMonochrome="True" crs:SupportsHighDynamicRange="True" crs:SupportsNormalDynamicRange="True" crs:SupportsSceneReferred="True" crs:SupportsOutputReferred="True" crs:RequiresRenditionBehavior="True" crs:Name="08 Lomography Cross-Processed" crs:Treatment="Color" crs:ProcessVersion="15.4" crs:LuminanceSmoothing="0" crs:Sharpness="10" crs:HasSettings="True" crs:Blacks2012="0" crs:Clarity2012="0" crs:Contrast2012="+41.25" crs:GrainAmount="25" crs:GrainFrequency="60" crs:GrainSize="35" crs:Highlights2012="-20" crs:HueAdjustmentAqua="+20" crs:HueAdjustmentBlue="-15" crs:HueAdjustmentGreen="+40" crs:HueAdjustmentMagenta="+30" crs:HueAdjustmentOrange="-10" crs:HueAdjustmentPurple="+20" crs:HueAdjustmentRed="+15" crs:HueAdjustmentYellow="-30" crs:LuminanceAdjustmentAqua="0" crs:LuminanceAdjustmentBlue="-15" crs:LuminanceAdjustmentGreen="-10" crs:LuminanceAdjustmentMagenta="0" crs:LuminanceAdjustmentOrange="+5" crs:LuminanceAdjustmentPurple="-10" crs:LuminanceAdjustmentRed="-5" crs:LuminanceAdjustmentYellow="+10" crs:PostCropVignetteAmount="-50" crs:PostCropVignetteMidpoint="35" crs:Saturation="+15" crs:SaturationAdjustmentAqua="+15" crs:SaturationAdjustmentBlue="-10" crs:SaturationAdjustmentGreen="+30" crs:SaturationAdjustmentMagenta="+20" crs:SaturationAdjustmentOrange="+15" crs:SaturationAdjustmentPurple="+25" crs:SaturationAdjustmentRed="+20" crs:SaturationAdjustmentYellow="+25" crs:Shadows2012="+30" crs:Vibrance="+20" crs:Whites2012="+25" crs:ColorGradeMidtoneHue="0" crs:ColorGradeMidtoneSat="0" crs:ColorGradeMidtoneLum="0" crs:ColorGradeHighlightHue="55" crs:ColorGradeHighlightSat="35" crs:ColorGradeHighlightLum="0" crs:ColorGradeShadowHue="270" crs:ColorGradeShadowSat="45" crs:ColorGradeShadowLum="0" crs:ColorGradeGlobalHue="0" crs:ColorGradeGlobalSat="0" crs:ColorGradeGlobalLum="0" crs:ColorGradeBlending="75" crs:ColorGradeBalance="-20">
 <crs:Name>
 <rdf:Alt>
 <rdf:li xml:lang="x-default">08 Lomography Cross-Processed</rdf:li>
 </rdf:Alt>
 </crs:Name>
 <crs:Group>
 <rdf:Alt>
 <rdf:li xml:lang="x-default">Creative</rdf:li>
 </rdf:Alt>
 </crs:Group>
 <crs:Look>
 
 
 
 <rdf:Description crs:Name="Adobe Color" crs:Amount="1.000000" crs:UUID="B952C21111114111B1115456789ABCDE" crs:SupportsAmount="True" crs:SupportsMonochrome="False" crs:SupportsOutputReferred="True">
 <crs:Group>
 <rdf:Alt>
 <rdf:li xml:lang="x-default">Profiles</rdf:li>
 </rdf:Alt>
 </crs:Group>
 </rdf:Description>
 </crs:Look>
 <crs:ToneCurvePV2012><rdf:Seq><rdf:li>0, 20</rdf:li><rdf:li>64, 55</rdf:li><rdf:li>128, 128</rdf:li><rdf:li>192, 196</rdf:li><rdf:li>255, 235</rdf:li></rdf:Seq></crs:ToneCurvePV2012><crs:ToneCurvePV2012Red><rdf:Seq><rdf:li>0, 20</rdf:li><rdf:li>64, 55</rdf:li><rdf:li>128, 128</rdf:li><rdf:li>192, 196</rdf:li><rdf:li>255, 235</rdf:li></rdf:Seq></crs:ToneCurvePV2012Red><crs:ToneCurvePV2012Green><rdf:Seq><rdf:li>0, 20</rdf:li><rdf:li>64, 55</rdf:li><rdf:li>128, 128</rdf:li><rdf:li>192, 196</rdf:li><rdf:li>255, 235</rdf:li></rdf:Seq></crs:ToneCurvePV2012Green><crs:ToneCurvePV2012Blue><rdf:Seq><rdf:li>0, 20</rdf:li><rdf:li>64, 55</rdf:li><rdf:li>128, 128</rdf:li><rdf:li>192, 196</rdf:li><rdf:li>255, 235</rdf:li></rdf:Seq></crs:ToneCurvePV2012Blue></rdf:Description>
 </rdf:RDF>
</x:xmpmeta>