presets/lightroom/Presets/Creative/Moody Cinematic Film - Creator Tuned.xmp
<x:xmpmeta xmlns:x="adobe:ns:meta/" x:xmptk="Adobe XMP Core 7.0-c000 1.000000, 0000/00/00-00:00:00"> <rdf:RDF xmlns:rdf="http://www.w3.org/1999/02/22-rdf-syntax-ns#">
  <rdf:Description rdf:about=""
   xmlns:crs="http://ns.adobe.com/camera-raw-settings/1.0/"
   crs:PresetType="Normal"
   crs:Cluster=""
   crs:UUID="F8D9C0B1A2E3D4C5B6A7980912345679"
   crs:SupportsAmount="True"
   crs:SupportsColor="True"
   crs:SupportsMonochrome="True"
   crs:SupportsHighDynamicRange="True"
   crs:SupportsNormalDynamicRange="True"
   crs:SupportsSceneReferred="True"
   crs:SupportsOutputReferred="True"
   crs:RequiresRenditionBehavior="True"
   crs:Name="Moody Cinematic Film - Creator Tuned"
   crs:Treatment="Color"
   crs:ProcessVersion="15.4"
   crs:HasSettings="True"
   crs:Temperature="6200"
   crs:Tint="+5"
   crs:Exposure2012="+0.45"
   crs:Contrast2012="-15"
   crs:Highlights2012="-40"
   crs:Shadows2012="+30"
   crs:Whites2012="+25"
   crs:Blacks2012="+5"
   crs:Clarity2012="-12"
   crs:Dehaze="+10"
   crs:Texture="0"
   crs:Vibrance="+30"
   crs:Saturation="+10"
   crs:HueAdjustmentRed="0"
   crs:HueAdjustmentOrange="-5"
   crs:HueAdjustmentYellow="-10"
   crs:HueAdjustmentGreen="+25"
   crs:HueAdjustmentAqua="-20"
   crs:HueAdjustmentBlue="-35"
   crs:HueAdjustmentPurple="0"
   crs:HueAdjustmentMagenta="0"
   crs:SaturationAdjustmentRed="+5"
   crs:SaturationAdjustmentOrange="+10"
   crs:SaturationAdjustmentYellow="-15"
   crs:SaturationAdjustmentGreen="-45"
   crs:SaturationAdjustmentAqua="+15"
   crs:SaturationAdjustmentBlue="+10"
   crs:SaturationAdjustmentPurple="-20"
   crs:SaturationAdjustmentMagenta="-20"
   crs:LuminanceAdjustmentRed="0"
   crs:LuminanceAdjustmentOrange="+10"
   crs:LuminanceAdjustmentYellow="-5"
   crs:LuminanceAdjustmentGreen="-20"
   crs:LuminanceAdjustmentAqua="-10"
   crs:LuminanceAdjustmentBlue="-30"
   crs:LuminanceAdjustmentPurple="0"
   crs:LuminanceAdjustmentMagenta="0"
   crs:ColorGradeMidtoneHue="45"
   crs:ColorGradeMidtoneSat="15"
   crs:ColorGradeMidtoneLum="0"
   crs:ColorGradeHighlightHue="45"
   crs:ColorGradeHighlightSat="20"
   crs:ColorGradeHighlightLum="0"
   crs:ColorGradeShadowHue="215"
   crs:ColorGradeShadowSat="10"
   crs:ColorGradeShadowLum="0"
   crs:ColorGradeGlobalHue="0"
   crs:ColorGradeGlobalSat="0"
   crs:ColorGradeGlobalLum="0"
   crs:ColorGradeBlending="75"
   crs:ColorGradeBalance="-10"
   crs:RedHue="+5"
   crs:RedSaturation="0"
   crs:GreenHue="0"
   crs:GreenSaturation="0"
   crs:BlueHue="-15"
   crs:BlueSaturation="+5"
   crs:GrainAmount="30"
   crs:GrainSize="45"
   crs:GrainFrequency="50"
   crs:Sharpness="15"
   crs:LuminanceSmoothing="25"
   crs:ColorNoiseReduction="25">
   <crs:Name>
    <rdf:Alt>
     <rdf:li xml:lang="x-default">Moody Cinematic Film - Creator Tuned</rdf:li>
    </rdf:Alt>
   </crs:Name>
   <crs:Group>
    <rdf:Alt>
     <rdf:li xml:lang="x-default">Creative</rdf:li>
    </rdf:Alt>
   </crs:Group>
   <crs:ToneCurvePV2012>
    <rdf:Seq>
     <rdf:li>0, 15</rdf:li>
     <rdf:li>45, 35</rdf:li>
     <rdf:li>128, 128</rdf:li>
     <rdf:li>192, 196</rdf:li>
     <rdf:li>255, 240</rdf:li>
    </rdf:Seq>
   </crs:ToneCurvePV2012>
   <crs:ToneCurvePV2012Red>
    <rdf:Seq>
     <rdf:li>0, 0</rdf:li>
     <rdf:li>255, 255</rdf:li>
    </rdf:Seq>
   </crs:ToneCurvePV2012Red>
   <crs:ToneCurvePV2012Green>
    <rdf:Seq>
     <rdf:li>0, 0</rdf:li>
     <rdf:li>255, 255</rdf:li>
    </rdf:Seq>
   </crs:ToneCurvePV2012Green>
   <crs:ToneCurvePV2012Blue>
    <rdf:Seq>
     <rdf:li>0, 0</rdf:li>
     <rdf:li>255, 255</rdf:li>
    </rdf:Seq>
   </crs:ToneCurvePV2012Blue>
   <crs:Look>
    <rdf:Description
     crs:Name="Adobe Color"
     crs:Amount="1.000000"
     crs:UUID="B952C21111114111B1115456789ABCDE"
     crs:SupportsAmount="True"
     crs:SupportsMonochrome="False"
     crs:SupportsOutputReferred="True">
     <crs:Group>
      <rdf:Alt>
       <rdf:li xml:lang="x-default">Profiles</rdf:li>
      </rdf:Alt>
     </crs:Group>
    </rdf:Description>
   </crs:Look>
  </rdf:Description>
 </rdf:RDF>
</x:xmpmeta>