presets/lightroom/Presets/Slide/Fuji Fortia SP 50.xmp
<x:xmpmeta xmlns:crs="http://ns.adobe.com/camera-raw-settings/1.0/" xmlns:rdf="http://www.w3.org/1999/02/22-rdf-syntax-ns#" xmlns:x="adobe:ns:meta/" x:xmptk="Adobe XMP Core 7.0-c000 1.000000, 0000/00/00-00:00:00">
 <rdf:RDF>
 
 
 
 <rdf:Description rdf:about="" crs:PresetType="Normal" crs:Cluster="" crs:UUID="14D08F1DEDFF491AB28AF3CCC36CE51E" crs:SupportsAmount="True" crs:SupportsColor="True" crs:SupportsMonochrome="True" crs:SupportsHighDynamicRange="True" crs:SupportsNormalDynamicRange="True" crs:SupportsSceneReferred="True" crs:SupportsOutputReferred="True" crs:RequiresRenditionBehavior="True" crs:Name="12 Fuji Fortia SP 50" crs:Treatment="Color" crs:ProcessVersion="15.4" crs:HasSettings="True" crs:Sharpness="10" crs:LuminanceSmoothing="0" crs:Clarity2012="0" crs:Texture="0" crs:GrainFrequency="50" crs:Whites2012="+17.5" crs:Saturation="+5" crs:Contrast2012="+45" crs:Highlights2012="-70" crs:Shadows2012="-35" crs:Blacks2012="-30" crs:GrainAmount="5" crs:GrainSize="15" crs:HueAdjustmentRed="+20" crs:HueAdjustmentOrange="-15" crs:HueAdjustmentYellow="-22.5" crs:HueAdjustmentGreen="+27.5" crs:HueAdjustmentAqua="+17.5" crs:HueAdjustmentBlue="-10" crs:HueAdjustmentPurple="+17.5" crs:HueAdjustmentMagenta="+12.5" crs:LuminanceAdjustmentGreen="-17.5" crs:LuminanceAdjustmentAqua="-17.5" crs:LuminanceAdjustmentBlue="-25" crs:LuminanceAdjustmentOrange="+7.5" crs:LuminanceAdjustmentYellow="+7.5" crs:SaturationAdjustmentRed="+30" crs:SaturationAdjustmentOrange="+25" crs:SaturationAdjustmentYellow="+15" crs:SaturationAdjustmentGreen="+42" crs:SaturationAdjustmentAqua="-20" crs:SaturationAdjustmentBlue="+32" crs:SaturationAdjustmentPurple="+20" crs:SaturationAdjustmentMagenta="+25" crs:ColorGradeMidtoneHue="0" crs:ColorGradeMidtoneSat="0" crs:ColorGradeMidtoneLum="0" crs:ColorGradeHighlightHue="50" crs:ColorGradeHighlightSat="10" crs:ColorGradeHighlightLum="0" crs:ColorGradeShadowHue="230" crs:ColorGradeShadowSat="12.5" crs:ColorGradeShadowLum="0" crs:ColorGradeGlobalHue="0" crs:ColorGradeGlobalSat="0" crs:ColorGradeGlobalLum="0" crs:ColorGradeBlending="75" crs:ColorGradeBalance="-5">
 <crs:Name>
 <rdf:Alt>
 <rdf:li xml:lang="x-default">12 Fuji Fortia SP 50</rdf:li>
 </rdf:Alt>
 </crs:Name>
 <crs:Group>
 <rdf:Alt>
 <rdf:li xml:lang="x-default">Slide</rdf:li>
 </rdf:Alt>
 </crs:Group>
 <crs:Look>
 
 
 
 <rdf:Description crs:Name="Adobe Vivid" crs:Amount="1.000000" crs:UUID="EA1DE074F188405965EF399C72C221D9" crs:SupportsAmount="True" crs:SupportsMonochrome="False" crs:SupportsOutputReferred="True">
 <crs:Group>
 <rdf:Alt>
 <rdf:li xml:lang="x-default">Profiles</rdf:li>
 </rdf:Alt>
 </crs:Group>
 </rdf:Description>
 </crs:Look>
 <crs:ToneCurvePV2012><rdf:Seq><rdf:li>0, 0</rdf:li><rdf:li>42, 28</rdf:li><rdf:li>128, 128</rdf:li><rdf:li>213, 230</rdf:li><rdf:li>255, 255</rdf:li></rdf:Seq></crs:ToneCurvePV2012><crs:ToneCurvePV2012Red><rdf:Seq><rdf:li>0, 0</rdf:li><rdf:li>42, 28</rdf:li><rdf:li>128, 128</rdf:li><rdf:li>213, 230</rdf:li><rdf:li>255, 255</rdf:li></rdf:Seq></crs:ToneCurvePV2012Red><crs:ToneCurvePV2012Green><rdf:Seq><rdf:li>0, 0</rdf:li><rdf:li>42, 28</rdf:li><rdf:li>128, 128</rdf:li><rdf:li>213, 230</rdf:li><rdf:li>255, 255</rdf:li></rdf:Seq></crs:ToneCurvePV2012Green><crs:ToneCurvePV2012Blue><rdf:Seq><rdf:li>0, 0</rdf:li><rdf:li>42, 28</rdf:li><rdf:li>128, 128</rdf:li><rdf:li>213, 230</rdf:li><rdf:li>255, 255</rdf:li></rdf:Seq></crs:ToneCurvePV2012Blue></rdf:Description>
 </rdf:RDF>
</x:xmpmeta>